!!!COM:	L van Beethoven
!!!OTL:	String Quartet No12 Op127
**kern	**dynam
*I"Violin II	*
*clefG2	*
*k[b-e-a-]	*
*E-:	*
*M2/4	*
=1	=1
!LO:TX:a:B:t=Maestoso	!
2G	f
=2	=2
8GL	.
4A-	sf
8A-	.
=3	=3
2G 2e-	sf
=4	=4
8GL 8e-	.
4d 4f	sf
8d 8f	.
=5	=5
4.B- 4.e-	sf
8c 8e-	.
=6	=6
4.c 4.e-	>
[8c	]
=7||	=7||
*M3/4	*
!LO:TX:t=sempre p  e  dolce	!
!LO:TX:a:B:t=Allegro	!
(2c	.
[4B-	.
=8	=8
2B-	.
[4c	.
=9	=9
2c	.
[4B-)	.
=10	=10
2B-	.
4B	.
=11	=11
2c	.
[4f	.
=12	=12
4f	.
2e-	.
=13	=13
4d	.
4e-)	.
(8e-L	.
8f	.
=14	=14
4B-)	.
4r	.
4r	.
=15	=15
4r	.
4r	.
4r	.
=16	=16
(4b-	p
4ee-	.
4cc)	.
=17	=17
(8b-L	.
8a-)	.
(8a-L	.
8g	.
4a-)	.
=18	=18
4cc	.
!LO:TX:t=cresc.	!
4b-	<
4b	.
=19	=19
(4cc	.
4ff	.
4dd	.
=20	=20
4b-	.
4ee-	.
4cc)	.
=21	=21
(8b-L	.
8a-)	.
(8a-L	.
8g	.
4B-) 4f	.
=22	=22
8B-L	.
8B- 8e-	.
8B-L 8e-	[
8B- 8e-	.
8B-L 8e-	f
8B- 8e-	.
=23	=23
8B-L 8e-	.
8B- 8e-	.
8B- 8e-	.
8B- 8e-	.
8B- 8e-	.
8B- 8e-	.
=24	=24
8B-L 8d	.
8B- 8d	.
8B- 8d	.
8B- 8d	.
8B- 8d	.
8B- 8d	.
=25	=25
8B-L 8d	.
8B- 8d	.
8B- 8d	.
8B- 8d	.
8B-L 8e-	.
8B- 8f	.
=26	=26
8B-L 8d	.
8B- 8d	.
8B-L 8e-	.
8B- 8e-	.
8B- 8e-	.
8B- 8e-	.
=27	=27
8B-L 8e-	.
8B- 8e-	.
8B- 8e-	.
8B- 8e-	.
8e-L	.
8d-	.
=28	=28
8cL	sf
8f	.
8f	.
8f	.
8fL	.
8f	.
=29	=29
(8fL 8ee-	sf
8g) 8ee-	.
8gL 8ee-	.
8g 8ee-	.
8fL 8dd	.
8f 8dd	.
=30	=30
(8ddL	sf
8ee-)	.
8a-L	.
8g	.
8gL	.
8a-	.
=31	=31
(8fL	sf
8g)	.
8cL	.
8cc	.
8fL	.
8A- 8d	.
=32	=32
4G 4e-	.
4r	.
4r	.
=33	=33
2.r	.
=34	=34
2.r	.
=35	=35
2.r	.
=36	=36
4d	.
4c	.
4r	.
=37	=37
2.r	.
=38	=38
8ee-L	.
8dd	.
8ccL	.
8b-	.
8aL	.
8dd	.
=39	=39
4g	.
4b-	.
4d	.
=40	=40
8c 8d	.
4cc	.
4b-	.
8f#	.
=41||	=41||
*k[b-e-]	*
*g:	*
(2G 2g	p
8AL	.
8B-	.
=42	=42
4c	.
4A	.
8B-L	.
8c	.
=43	=43
4A)	.
4cc	.
8b-L	.
8a)	.
=44	=44
(4a	.
[2g)	.
=45	=45
!LO:TX:t=dim.	!
(4g	.
[2d)	.
=46	=46
4d	.
(8cL	.
8B-	.
[4A)	.
=47	=47
4A	.
!LO:TX:t=cresc.	!
(8eL	.
8d	.
8c#	.
8cc#)	.
=48	=48
8ccL	p
4f#	.
4g	.
8a	.
=49	=49
(2.b-	.
=50	=50
2a	<
8gL	.
8f#)	[
=51	=51
(4a	.
4e-	.
8dL	.
8c)	.
=52	=52
(4c	.
4B-)	.
(8B-L	.
8c)	.
=53	=53
!LO:TX:t=dim.	!
(8dL	.
8dd	.
4gg	.
4ff)	.
=54	=54
(4ff)	.
4dd#	.
[4ee)	.
=55	=55
8ee	.
(8A	.
!LO:TX:t=cresc.	!
4a)	.
4a	.
=56	=56
8AL	.
8b-	.
8dL 8b-	.
8aa	.
8gg	.
8ff#	.
=57	=57
4dd	p
4r	<
(8ee-L	.
8dd)	.
=58	=58
4dd	.
4r	[
(8ee-L	>
8dd)	]
=59	=59
4B- 4d	.
4r	<
(8e-L	.
8d)	.
=60	=60
4d	.
4r	>
(8e-L	.
8d)	]
=61	=61
!LO:TX:t=cresc.	!
[2.gg	<
=62	=62
(4gg	.
4ff#	.
4gg)	.
=63	=63
8ggL	f
8ff	.
8ee-L	.
8dd	.
8ccL	.
8b-	.
=64	=64
8eL	.
8e-	.
8ee-L	.
8dd	.
8ddL	.
8cc	.
=65	=65
4d 4b-	f
4G	.
4G	.
=66	=66
4G	.
4r	.
4r	.
=67	=67
4r	.
!LO:TX:t=ten.	!
4b-	p
4b-	.
=68	=68
4b-	.
4cc	.
4cc	.
=69	=69
4d 4b	f
4G	.
4G	.
=70	=70
4G	.
4r	.
4r	.
=71	=71
4r	.
!LO:TX:t=ten.	!
4b	p
4b	.
=72	=72
4b	.
4cc	.
qqbt	.
qqccT	.
4ccT	.
=73	=73
2.r	.
=74	=74
4r	.
4A	pp
qqGT	.
qqAt	.
4At	.
=75||	=75||
*k[f#]	*
*G:	*
*M2/4	*
!LO:TX:a:B:t=Maestoso	!
*^	*
2b	2G 2d	f
*v	*v	*
=76	=76
8GL 8d 8b	.
4d 4f#	sf
8d 8f#	.
=77	=77
*^	*
2gg	2G 2d 2b	.
*v	*v	*
=78	=78
8GL 8d 8b 8gg	.
4ff#	sf
8ff#	.
=79	=79
4.b 4.gg	sf
8gg	.
=80	=80
8gL 8ee	.
4G 4e	.
[8G [8e	p
=81||	=81||
*M3/4	*
!LO:TX:a:B:t=Allegro	!
4G 4e	.
(8f#L	.
8g	.
[4a)	.
=82	=82
(4a	.
4d	.
[4g)	.
=83	=83
(8gL	.
8e	.
4a	.
[4f#)	.
=84	=84
(4f#	.
4g	.
4f	.
=85	=85
4e	.
4A	.
[4a	.
=86	=86
4a	.
4B	.
4b)	.
=87	=87
4cc	.
4c)	.
[4d [4cc	.
=88	=88
(8dL 8cc	.
8f#	.
8gL	.
8a	.
8b	.
8B)	.
=89	=89
!LO:TX:t=cresc.	!
(4e	<
4a	.
[4f#	.
=90	=90
4f#	.
4b	.
[4g	.
=91	=91
4g	.
4cc	.
[4a	.
=92	=92
4a	[
4dd	f
4b)	.
=93	=93
4g	f
(8gL	.
8a	.
4b)	.
=94	=94
4r	.
(8eeL	.
8ff#	.
4gg)	.
=95	=95
4r	.
(8bL	p
8cc	.
4dd)	.
=96	=96
4r	.
(8aL	.
8b	.
8cc	.
8dd)	.
=97	=97
4b	.
4r	.
4r	.
=98	=98
[2.g	.
=99	=99
4g	.
4cc	.
[4a	.
=100	=100
(4a	.
4dd	.
[4b)	.
=101	=101
(4b	.
4ee-	.
[4cc)	.
=102	=102
(4cc	.
4b	.
8ccL	.
8dd)	.
=103	=103
!LO:TX:t=cresc.	!
!LO:TX:t=cresc.	!
2.ee-	<
=104	=104
2.dd	.
=105	=105
2.gg	.
=106	=106
[2.ff	.
=107	=107
4ff	f
(8ee-L	.
8ff	.
4gg)	.
=108	=108
4r	.
(8ccL	f
8dd	.
4ee-)	.
=109	=109
4r	.
(8ccL	f
8dd	.
4ee)	.
=110	=110
4r	.
(8ccL	>
8ee	.
[4ff)	]
=111	=111
(4ff	p
8ee-L	.
8ff	.
[4gg)	.
=112	=112
8ggL	.
(8e-	.
8fL	.
8e-	.
8c	.
8f	.
=113	=113
4e-)	pp
4r	.
4r	.
=114	=114
([2.c	.
=115	=115
4c	.
4f	.
[4d	.
=116	=116
4d	.
4g	.
[4e-	.
=117||	=117||
*k[b-e-a-]	*
*E-:	*
4e-	.
4a-	.
[4f	.
=118	=118
!LO:TX:t=cresc.	!
4f	<
4b-	.
[4g)	.
=119	=119
(4g	.
4c	.
[4f)	.
=120	=120
(4f	.
4B-	.
4e-)	.
=121	=121
8e-L	ff
8A 8g-	.
8AL 8g-	.
8A 8g-	.
8A 8g-	.
8A 8g-	.
=122	=122
4A 4g-	.
qqa	.
4gg-	.
qqa	.
4gg-	.
=123	=123
8gg-L	.
8ee-	.
8cc	.
8a	.
8g-L	.
8e-	.
=124	=124
8ee-L	.
8cc	.
8aL	.
8a 8cc	.
8aL 8cc	.
8c	.
=125	=125
8d-L 8f	.
8d- 8f	.
8d- 8f	.
8d- 8f	.
8d- 8f	.
8d- 8f	.
=126	=126
4d- 4f	.
qqb-	.
4ff	.
qqb-	.
4ff	.
=127	=127
8ffL	.
8dd-	.
8b-L	.
8f	.
8d-L	.
8B-	.
=128	=128
8ffL	.
8dd-	.
8b-L	.
8f	.
8d-L	.
8B-	.
=129	=129
8BL 8a-	.
8B 8a-	.
8B 8a-	.
8B 8a-	.
8B 8a-	.
8B 8a-	.
=130	=130
4B 4a-	.
qqb	.
4aa-	.
qqb	.
4aa-	.
=131	=131
qqb	.
8aa-L	.
8ff	.
8ffL	.
8b	.
8a-L	.
8f	.
=132	=132
8ffL	.
8b	.
8fL 8b	.
8f 8b	.
8f 8b	.
8f 8b	.
=133	=133
4c	.
(4cc	.
4g)	.
=134	=134
4c	.
(4gg	.
4ee)	.
=135||	=135||
*k[]	*
*C:	*
*M2/4	*
!LO:TX:a:B:t=Maestoso	!
2cc 2ee	ff
=136	=136
8GL 8e 8cc 8ee	.
4f 4b	sf
8f 8b	.
=137	=137
2e 2ee	.
=138	=138
8ccL 8ee	.
4b 4gg	sf
8b 8gg	.
=139||	=139||
*M3/4	*
!LO:TX:a:B:t=Allegro	!
[2.cc [2.gg	f
=140	=140
2cc 2gg	[
[4e	p
=141	=141
4.e	.
8e	.
8d	.
8e	.
=142	=142
8fL	.
8g	.
8a	.
8b	.
8cc	.
8dd	.
=143	=143
8eeL	.
8e	.
8e	.
8e	.
8fL	.
8f	.
=144	=144
8eL	.
8d	.
8d	.
8c	.
8c	.
8gg	.
=145	=145
(4gg	.
4ccc	.
4aa	.
=146	=146
8ggL	.
8ff)	.
(8ffL	.
8ee	.
4ff)	.
=147	=147
4ee	f
(4dd-	sf
4b-)	.
=148	=148
4g	p
(4d-	.
4B-)	.
=149	=149
4d-	.
(4g	.
4dd-)	.
=150	=150
4cc	.
(4A-	.
4c)	.
=151	=151
4f	f
(4cc	sf
4a-)	.
=152	=152
4f	p
(4cc	.
4ff)	.
=153	=153
4aa-	.
(4ccc	.
4aa-)	.
=154	=154
4gg	.
(4e	.
4d-)	.
=155	=155
4G	.
(4dd-	sf
4b-)	.
=156	=156
4g	p
(4ff-	.
4ee-)	.
=157	=157
4dd-	.
(4f-	.
4d-)	.
=158	=158
4B-	.
(4c	.
4A-)	.
=159||	=159||
*k[b-e-a-]	*
*E-:	*
4c	f
(4ee-	sf
4cc)	.
=160	=160
4a-	p
(4a-	.
4e-)	.
=161	=161
4c	.
(4e-	.
4cc)	.
=162	=162
4dd-	.
(4G	.
4B-)	.
=163	=163
4e	.
(4b-	sf
4f)	.
=164	=164
4e	p
(4g	.
4b-)	.
=165	=165
4e 4dd-	.
!LO:TX:t=cresc.	!
(4b-	.
4g)	.
=166	=166
4e	.
(4cc	>
8a-L	]
8g	.
=167	=167
2f	p
[4b-)	.
=168	=168
4b-	.
(4e-	.
4cc	.
=169	=169
2f	.
[4a-)	.
=170	=170
(4a-	.
8gL	.
8f	.
8e-	.
8d	.
=171	=171
4c	.
4f	.
4c-) 4d	.
=172	=172
(4B- 4d	.
4e-	.
4c)	.
=173	=173
(8B-L	.
8A-)	.
(8A-L	.
8G)	.
4A-	.
=174	=174
4G	.
4r	.
4r	.
=175	=175
4r	.
(4.gg	.
8ff)	.
=176	=176
4r	.
(4.ff	.
8ee-)	.
=177	=177
4r	.
4.ee-	.
(8ee-	.
=178	=178
8ddL	.
8ee-	.
8ff	.
8gg	.
8aa-	.
8bb-)	.
=179	=179
4ccc	.
4r	.
!LO:TX:t=cresc.	!
8r	.
(8f	<
=180	=180
8B-L	.
8d	.
8e-L	.
8d	.
8e-	.
8c)	.
=181	=181
(8B-L	.
8a-)	.
(8a-L	.
8g	.
8f	.
8a-)	.
=182	=182
(8a-L	.
8g)	.
8gL	.
8B- 8e-	[
8B-L 8e-	.
8B- 8e-	.
=183	=183
8B-L 8e-	.
8B- 8e-	.
8B- 8e-	.
8B- 8e-	.
8B-L 8e-	.
8B-	.
=184	=184
8B-L	.
8B-	.
8B-	.
8B-	.
8B-	.
8B-	.
=185	=185
8B-L	.
8B-	.
8B-	.
8B-	.
8B-	.
8B-	.
=186	=186
8B-L	.
8B- 8e-	.
8B- 8e-	.
8B- 8e-	.
8B- 8e-	.
8B- 8e-	.
=187	=187
8B-L 8e-	.
8B- 8e-	.
8B- 8e-	.
8B- 8e-	.
8B- 8e-	.
8B- 8e-	.
=188	=188
8cL 8e-	.
8c 8e-	.
8c 8e-	.
8c 8e-	.
8c 8e-	.
8c 8e-	.
=189	=189
8cL 8e-	.
8c 8e-	.
8c 8e-	.
8c 8e-	.
8c 8e-	.
8c 8e-	.
=190	=190
8d-L 8e-	.
8d- 8e-	.
8d- 8e-	.
8d- 8e-	.
[4ee-	.
=191	=191
2ee-	.
(8ffL	.
8gg)	.
=192	=192
(2bb-	.
4aa-)	.
=193	=193
2.gg-	.
=194	=194
[2.ff	sf
=195	=195
4ff	.
[2gg	sf
=196	=196
4gg	.
[2aa-	sf
=197	=197
4aa-	.
8bb-L	.
8ccc	.
8ddd-	.
8G	.
=198	=198
4A-	.
4r	.
4r	.
=199	=199
2.r	.
=200	=200
4r	.
4r	.
4g	p
=201	=201
4f	.
(8a-L	.
8b-)	.
(8b-	.
8cc)	.
=202	=202
4cc	.
4cc	.
8bL	.
8cc	.
=203	=203
(8ccL	.
8b-)	.
8a-L	.
8g	.
8f	.
8b-	.
=204	=204
4e-	.
4a-	.
4d	.
=205	=205
4g	.
4c	.
(8fL	.
8e-)	.
=206	=206
8A-L 8d	.
!LO:TX:t=cresc.	!
4dd	.
4ee-	.
8ff	.
=207	=207
(2.gg	p
=208	=208
2ff	.
8ee-L	.
8dd)	.
=209	=209
(4ff	.
4cc-	.
8b-L	>
8a-)	.
=210	=210
(4a-	.
4g	.
4a-)	.
=211	=211
4b-	]
(4B-	.
4B)	.
=212	=212
[2.c	.
=213	=213
(8cL	.
8g	.
8b-	.
8a-	.
8ccL	.
[8c)	.
=214	=214
8cL	.
4c-	.
4B-	.
8d	.
=215	=215
(8e-L	.
8g	.
8fL	.
8g	.
8a-	.
8b-)	.
=216	=216
(8cc-L	.
8f	.
8eL	.
8f	.
8g	.
8a-)	.
=217	=217
(8a-L	.
8d)	.
(8dL	.
8dd	.
8ee-	.
8ff)	.
=218	=218
(4ff	.
[2ee-)	.
=219	=219
!LO:TX:t=dim.	!
(4ee-	.
[2e-)	.
=220	=220
(2e-	.
[4e)	.
=221	=221
!LO:TX:t=cresc.	!
8eL	<
(8e	.
8gL	.
8f)	.
8fL	.
8ff	[
=222	=222
8ffL	f
8ee-	.
8ee-L	.
8cc	.
8ee-L	.
8dd	.
=223	=223
[2.ee-	p
=224	=224
(4ee-	>
4dd	.
4ee-)	]
=225	=225
4g 4ee-	.
4r	<
(8cL	.
8B-)	.
=226	=226
4B-	.
4r	[
(8cL	>
8B-)	]
=227	=227
!LO:TX:t=cresc.	!
[2.e-	<
=228	=228
(4e-	.
4d	.
4e-)	.
=229	=229
8e-L	[
8b-	.
8a-L	.
8g	.
8f	.
8e-	.
=230	=230
8a-L	.
8a-	.
8gJ	.
8ddL	.
8ee-	.
8ff	.
=231	=231
4gg	.
4G 4e-	.
4G 4e-	.
=232	=232
4G 4e-	.
4r	.
4r	.
=233	=233
4r	.
!LO:TX:t=ten.	!
4ee-	p
4ee-	.
=234	=234
4ff	.
4f 4dd	.
4f 4dd	.
=235	=235
4g 4ee-	.
4G 4e-	.
4G 4e-	.
=236	=236
4G 4e-	.
4r	.
4r	.
=237	=237
4r	.
!LO:TX:t=ten.	!
4ee-	p
4ee-	.
=238	=238
4ff	.
4a-	.
4a-	.
=239	=239
2.r	.
=240	=240
4r	.
4a-	.
4g	.
=241	=241
4r	.
(4c	.
[4a-)	.
=242	=242
(2a-	.
4g)	.
=243	=243
(4e-	.
4a-	.
4f)	.
=244	=244
(8fL	.
8e)	.
(8eL	.
8d	.
4e)	.
=245	=245
([2.f	.
=246	=246
4f	.
2e-	.
=247	=247
2.d	.
=248	=248
2.e-)	.
=249	=249
(2.a-	.
=250	=250
2.g	.
=251	=251
2.f	.
=252	=252
2.g)	.
=253	=253
!LO:TX:t=cresc.	!
(4cc	<
4ff	.
8ddL	.
8cc)	.
=254	=254
(8ccL	.
8b-)	.
(8b-L	.
8a	.
4b-)	.
=255	=255
(8ccL	.
8b-)	.
(8b-L	.
8a	.
4b-)	.
=256	=256
(8cccL	.
8bb-)	.
(8bb-L	.
8aa	.
8bb-L	.
8b-)	.
=257	=257
(8ccL	.
8b-)	.
(8b-L	.
8a	.
4b-)	.
=258	=258
(8b-L 8ff	.
8ee-)	.
(8ee-L	.
8dd	.
4ee-)	.
=259	=259
(8ddL	p
8cc)	<
(8ccL	.
8b	.
4f) 4cc	.
=260	=260
(8ddL	.
8cc)	.
(8ccL	.
8b	.
[4f) [4cc	.
=261	=261
(4f 4cc	.
4g 4b-	>
[4a-)	.
=262	=262
(4a-	.
4g	.
8a-L	]
8b-)	.
=263	=263
!LO:TX:t=cresc.	!
(8ddL	<
8cc)	.
(8ccL	.
8b	.
4cc)	.
=264	=264
(8ddL	.
8cc)	.
(8ccL	.
8b	.
8fL 8cc	.
8f)	.
=265	=265
(4g	.
4a-	.
[4b-	.
=266	=266
4b-	.
4cc	.
8dd-L	.
8ee-)	.
=267	=267
(8ee-L	[
8a-)	.
(8a-L	.
8g	.
4a-)	.
=268	=268
!LO:TX:t=dim.	!
(8ccL	.
8b-)	.
(8b-L	.
8a	.
4b-)	.
=269	=269
(8ee-L	.
8dd)	.
(8ddL	.
8cc	.
4dd)	.
=270	=270
(8ffL	.
8ee-)	.
(8ee-L	.
8dd	.
8ee-L	.
8dd-	.
=271	=271
!LO:TX:t=cresc.	!
4cc	<
4ff	.
4dd	.
=272	=272
4b-	.
4ee-	.
4cc)	.
=273	=273
(4dd	.
8ffL	.
8ee-	.
4b-) 4ff	.
=274	=274
(4b- 4gg	[
[2ee-)	.
=275	=275
(2ee-	.
[4ff	.
=276	=276
2ff	.
[4ee-)	.
=277	=277
(2ee-	p
[4dd)	.
=278	=278
(2dd	.
4e-) [4ee-	.
=279	=279
(2ee-	.
[4dd	.
=280	=280
2dd	.
4g) 4ee-	.
=281	=281
(2.a-	.
=282	=282
4g)	.
4r	.
4r	.
=283	=283
*k[b-e-a-d-]	*
*A-:	*
*M12/8	*
!LO:TX:a:B:t=Adagio ma non troppo e molto cantabile	!
8r	.
4r	.
8r	.
=284	=284
2.r	.
4r	.
[8B-	.
4B-	.
[8B-	.
=285	=285
[2.B-	.
4B-	.
[8B-	.
4B-	.
8B-	.
=286	=286
(4.A-	.
4.c)	.
2.c 2.e-	.
=287	=287
2.B- 2.e-	.
2.d- 2.e-	.
=288	=288
4.c 4.e-	.
(2.A-	.
4.c)	.
=289	=289
4.c	.
[4.e-	.
(4e-	.
8G	.
4A-	.
8B-)	.
=290	=290
(4.c	.
4a-	.
8e-)	.
2.c 2.e-	.
=291	=291
(2.B- 2.e-	.
4.d-) 4.e-	.
(8d-L	.
8B-	.
8e-)	.
=292	=292
(4c	.
8cc	.
4b-	.
8a-)	.
(4a-	.
8g)	.
(4g	.
8f)	.
=293	=293
(4.f	.
4a-	.
8g)	.
4G 4g	.
(8d-	pp
4d-	.
8d-)	.
=294	=294
(4d-	.
8d-	.
4d-	.
8d-	.
4d-	.
8d-	.
4d-	.
8d-)	.
=295	=295
(4c	.
8c	.
4c	.
8d-	.
4e-	.
8e-	.
4e-	.
8e-)	.
=296	=296
(4e-	.
8d-	.
4c	.
8B-	.
4A-	.
8B-	.
4B- 4f	.
8B- 8g	.
=297	=297
4c) 4a-	.
(8c	.
4B-	.
8G	.
4A-)	.
(8G	.
4e-	.
8f)	.
=298	=298
[4.g	.
(4g	.
8f)	.
(4f	.
8e-	.
4f	.
8g)	.
=299	=299
[4.a-	.
(4a-	.
8g)	.
(4e-	.
[8a-)	.
(8a-L	.
8B-	.
8A-)	.
=300	=300
(4A-	.
[8a-)	.
4a-	.
8a-	.
(4a-	.
8b-	.
4cc	.
8b-)	.
=301	=301
(4cc	>
8c	.
4d-)	.
8d-	]
(4.A-	.
4G	.
8g)	.
=302	=302
4A-) 4g-	.
(8c	.
4A-) 4f	.
(8d-	.
4A-) 4a-	.
!LO:TX:t=cresc.	!
(8c	.
4A-	.
8G)	.
=303	=303
4e-	p
8r	.
4G 4e-	.
8r	.
4A- 4e-	.
=||	=||
8r	.
4r	.
[8e-L	p
=304	=304
(4e-	.
16f	.
16g)	.
8.gL	.
[16a-	.
[8a-J	.
8a-L	.
(16g	.
16a-	.
16b-	.
16cc)	.
4a 4cc	.
16a	.
16cc	.
=305	=305
(8cL	.
8a	.
16b-	.
16bb-)	.
(4bb-	.
16aa	.
16aa-)	.
4aa-	.
[8gg	.
16ggLL	.
[16b-	.
4b-	.
=306	=306
(16bLL	.
[16cc)	.
4cc	.
(16eeLL	.
16ff)	.
(16ffLL	.
16ee-	.
8dd-)	.
(16ccLL	.
16dd-)	.
(16dd-LL	.
16cc	.
8b-J)	.
(16bLL	.
16cc)	.
(16ccLL	.
16b-	.
8a-)	.
=307	=307
!LO:TX:t=cresc.	!
(4a-	.
8cc	.
8ee-L	.
8aa-	.
8ccc)	.
!LO:TX:t=dim.	!
(8.bb-L	.
16b-	.
16a-	.
16g)	.
(8gL	.
8dd-)	.
8dd-J	.
=308	=308
(8d-L	.
8c	.
8B-)	.
(4B-	.
16A-)	.
16cc	.
(8a-L	.
8ee-	.
16dd	.
16dd-)	.
(4dd-	.
8cc)	.
=309	=309
(4a-	.
16f	.
16e-)	.
4e-	.
(8d-	.
4b-	.
8B-)	.
!LO:TX:t=cresc.	!
8.gL 8.b-	.
(16g	.
16f	.
16e)	.
=310	=310
(4G	.
16A-)	.
[16a-	.
(4a-	.
16cc)	.
[16cc	.
(4cc	.
16cc)	.
[16cc	.
(4cc	.
16a-)	.
[16a-	.
=311	=311
(8a-L	.
[4f)	.
(4f	.
[8A-)	.
(8A-L	.
8G)	.
[8G	.
8GL	.
(8g	.
16b-	.
16cc)	.
=312	=312
(4cc	sf
8dd-)	.
4G	.
(16A-	.
16B-)	.
(8cL	.
8d-)	.
8d-	.
(8d-L	.
8B-	.
16c	.
16d-)	.
=313	=313
(8dL	.
8e-)	.
[8e-	.
(8e-L	.
8c	.
16d-	.
16e-)	.
(8f-L	.
16d-	.
16f-	.
16e-)	.
[16ee-	.
(8ee-L	.
8a-	.
16dd-)	.
16ee-	.
=314	=314
!LO:TX:t=cresc.	!
(8b--L	<
8.a-)	.
16a- 16cc	.
(8a-L 8cc	.
8.cc-	.
16b-)	.
(8b-L	.
8.a-)	.
16e-	.
(8e-L	.
8.f)	.
16f	[
=315	=315
4f	.
8A- 8f	.
(16A-LL	.
16a-	.
8.b-L	.
16dd-)	.
(8dd-L	.
16cc)	.
(16e-	.
16c	.
16e-)	.
(8e-L	.
16d-)	.
16d-LL	.
(16B-	.
16A-)	.
=316	=316
8GL	.
[4G [4g	.
*^	*
(16gLL	8GL	.
16f)	.	.
*v	*v	*
(8fL	.
16e-	.
16d-)	.
4c	.
[8B-	.
4B-	.
(16A-	.
16G)	.
=317	=317
(8.GL	.
16A-)	.
(16A-LL	.
16c)	.
(16cLL	.
16d-	.
16c	.
16cc	.
16b-	.
16a-)	.
(8e-L	.
8d-	.
8c)	.
(16e-LL	.
16d-	.
16c	.
16e-	.
16f	.
16g-)	.
=318	=318
!LO:TX:t=cresc.	!
(8g-L	.
8.f	<
16e-)	.
8a-L	.
(8.a-	.
16b-)	.
(8b-L	.
8.a-)	.
16a-	.
8a-L	.
(8.a-	.
16ff)	.
=319	=319
[4ff	>
(16ff	]
16dd-)	]
(8ccL	p
8.b-	.
16g)	.
8e-L	.
8.c	.
16c	.
(8cL	.
8G	.
16B-	.
16g)	.
=320	=320
!LO:TX:t=dim.	!
(4g-	>
16c)	.
(16g-	.
4f)	.
16d-)	.
[16a-	.
(4a-	.
16e-)	.
(16c	]
!LO:TX:t=cresc.	!
[4d-)	<
16d-	.
(16dd-	.
=321	=321
8b-L)	p
8r	.
16r	.
(16dd	pp
8dd-L)	.
8r	.
16r	.
(16dd-	.
8ccL)	.
=322||	=322||
*M4/4	*
!LO:TX:a:B:t=Andante Con moto	!
8r	.
16r	.
(8e-	p
32f	.
32g)	.
=323	=323
16a-LL	.
(8d	.
32e-	.
32b	.
16ccLL)	.
(8g	.
32a-	.
32cc)	.
16ee-LL	.
16c	.
16r	.
16cc	.
16r	.
16c	.
16r	.
16ee-	.
=324	=324
16r	.
(8ff	.
32ee	.
32ee-)	.
16ddLL	.
(8dd-	.
32b-	.
32a-	.
16gLL)	.
16G	.
16r	.
16g	.
16r	.
16ee-	.
16r	.
16ee-	.
=325	=325
16r	.
(8aa-	.
32ee-	.
32ee	.
16ffLL)	.
16f	.
16r	.
16f	.
16r	.
(8ee-	.
32dd	.
32dd-	.
16ccLL)	.
16e-	.
16r	.
16ee-	.
=326	=326
!LO:TX:t=cresc.	!
!LO:TX:t=cresc.	!
16r	<
(8ccc	.
32bb-	.
32aa-	.
16ggLL	.
32aa-	.
32bb-	.
16aa-LL	.
32ee-	.
32cc)	.
16b-LL	.
16e-	.
16r	.
16ee-	.
!LO:TX:t=dim.	!
16r	>
16e-	.
16r	.
16ee-	.
=327	=327
(32a-LLL	pp
32g	.
32a-	.
32e-	.
32a-	.
32e-	.
32f	.
32g	.
32a-LLL	.
32g	.
32a-	.
32e-	.
32f	.
32g	.
32a-	.
32b-)	.
16e-LL	.
[16cc	.
16ccLL	.
16cct	.
qqb	.
qqcc	.
16r	.
[16a-	.
16a-LL	.
qqgt	.
qqa-t	.
16a-t	.
=328	=328
(32ee-LLL	.
32dd-	.
32cc	.
32dd-	.
32ee-	.
32dd-	.
32ff	.
32dd-	.
32ccLLL	.
32b-	.
32dd-	.
32b-	.
32a-	.
32g	.
32b-	.
32a-)	.
16gLL	.
[16g	.
16g	.
16a-T	.
qqg	.
qqa-	.
16r	.
[16b-	.
16b-	.
qqa-T	.
qqb-T	.
16b-T	.
=329	=329
!LO:TX:t=cresc.	!
(32bLLL	.
32cc	<
32dd-	.
32cc)	.
(32cc	.
32b-	.
32a-	.
32g	.
32a-LLL	.
32g	.
32f	.
32e	.
32f	.
32c	.
32g	.
32f)	[
16r	.
8B-	p
16b-T	.
qqa	.
qqb-	.
16r	.
16e-	.
16d	.
16ddt	.
=330	=330
32r	.
(32dd	.
32ff	.
32gg)	.
8aa-J	.
32r	.
(32d	.
32f	.
32g	.
8a-J)	.
16r	.
[16e-	.
16e-	.
16cT	.
16r	.
[16ee-	.
16ee-	.
qqddt	.
qqee-T	.
16ee-T	.
=331	=331
!LO:TX:t=poco cresc.	!
16ee-LL	.
8e-	<
(32e-	.
32f	.
16gLL)	.
8g	.
(32g	.
32a-	.
16b-LL)	.
8gg	.
(32gg	.
32aa-	.
16bb-LL)	.
(8gg	.
32aa-	.
32bb-	.
=332	=332
8cccJ)	.
(16aa-LL	.
32ee-	.
32dd-	.
8cc)	.
[8aa-	.
16aa-LL	.
(8ccc	.
32ddd-	.
32eee-	[
!LO:TX:t=piu cresc.	!
16eee-LL)	.
[16ee-	.
(32ee-LLL	.
32ff	.
32gg-)	.
32gg-	.
=333	=333
16ff-LL	f
8d-	.
(32d-	.
32e-	.
16f-LL)	.
8dd-	sf
(32dd-	.
32ee-	.
8ff-J)	.
(16f-LL	p
32d-	.
32A-)	.
8r	.
(16a-	.
32f	.
32d)	.
=334	=334
8r	.
(16cc	.
32a-	.
32a)	.
8r	.
(16bb-	.
32ff	.
32gg	.
16aa-LL)	.
(8ee-	.
32ff	.
32ee-)	.
16ee-LL	.
(8dd	.
32dd-	.
32b-	.
=335	=335
8e-L) 8cc	.
8r	.
16r	.
(8B-	.
32A-	.
32d-	.
8cL)	.
8r	.
16r	.
(8g	.
32f-	.
32e-	.
=336	=336
8a-L)	.
8r	.
16r	.
(8f-	.
32e-	.
32b-	.
32a-LLL)	.
(32A-	.
32B-	.
32c	.
!LO:TX:t=cresc.	!
32dLLL	<
32e-	.
32A-	.
32e)	.
(32eLLL	.
32f	.
32B-	.
32g)	.
(32gLLL	.
32a-	.
32e-	.
32a-)	.
=337	=337
!LO:TX:t=p  dol.	!
16b-LL	[
[16e-	.
16e-	.
16e-T	.
qqd	.
qqe-	.
16r	.
[16ee-	.
16ee-	.
16ee-T	.
qqdd	.
qqee-	.
32b-LLL	.
32e-	.
32f	.
32e-	.
32f	.
32e-	.
32f	.
32g	.
32gLLL	.
32a-	.
32e-	.
32a-	.
32a-	.
32b-	.
32e-	.
32b-	.
=338	=338
(32b-LLL	.
32e-	.
8cc)	.
16e-T	.
qqd	.
qqe-	.
16r	.
8cc	.
16ee-T	.
(qqdd	.
qqee-	.
32ee-LLL	.
32ff	.
32gg-	.
32ff	.
32ee-	.
32ff	.
32ee-	.
32dd-)	.
(32dd-LLL	.
32cc	.
32dd-	.
32ee-	.
32b-	.
32a-	.
32b-	.
32cc	.
=339	=339
!LO:TX:t=cresc.	!
16dd-LL)	.
[16d-	.
16d-	.
qqg-T	.
16f-T	.
qqe-	.
qqf-	.
32r	.
(32a-	.
32dd-	.
32cc	.
32dd-)	.
(32a-	.
32dd-	.
32ee-)	.
32ff-LLL	.
32g	.
[16a-	.
16a-LL	.
16a-T	.
32r	.
(32g	.
32gg	.
32g	.
32aa-)	.
(32b-	.
32bb-	.
32b-)	.
=340	=340
16aa-LL	p
[16a-	.
16a-LL	.
16a-T	.
16r	.
[16b-	.
16b-	.
16b-T	.
32r	.
(32e-	.
32ee-	.
32dd	.
32ee-LLL	.
32cc	.
32b	.
32cc	.
32dd-LLL	.
32cc	.
32dd-	.
32ee-	.
32ffLLL	.
32ee-	.
32ff	.
32gg)	.
=341	=341
!LO:TX:t=dim.	!
16aa-LL	.
[16ee-	>
16ee-	.
16a-TJJ	.
32r	.
(32a-	.
32dd-	.
32cc	.
32dd-)	.
(32a-	.
32ff-	]
32dd-	.
16ccLL)	.
!LO:TX:t=cresc.	!
[16a-	<
16a-	.
16ee-t	.
qqdd	.
qqee-	.
32r	.
(32e-	.
32f	.
32e-	.
32g)	.
32e-	.
(32f	[
32e-	.
=342	=342
!LO:TX:t=dim.	!
16a-LL)	.
16e-	>
32r	.
(32e-	.
32cc	.
32b-)	.
16b-LL	.
16e-	.
32r	.
(32e-	.
32cc	.
32b-)	.
16a-LL	.
(16e-	.
16a-LL)	.
16c	]
(8c#L	p
[8e)	.
=343||	=343||
*k[f#c#g#d#]	*
*E:	*
*M2/2	*
!LO:TX:a:B:t=Adagio molto es-	!
4e	.
(2G#	.
4A#)	.
=344	=344
!LO:TX:a:B:t=pressivo	!
4f#	.
2B 2f#	.
[4b	.
=345	=345
(8bL	<
[8e) [8ee	.
[2.e [2.ee	.
=346	=346
4.e 4.ee	p
[8e	.
(8eL	.
8d#	.
8b	.
8b)	.
=347	=347
(2g# 2b	.
4cc#	.
4g)	.
=348	=348
(2f#	.
4a)	.
4a 4b	.
=349	=349
4g# 4b	<
[4B	.
8BL	.
4b	.
[8a#	[
=350	=350
(4a#	f
8ee	.
8e)	.
(8eL	.
8B)	.
8r	.
[8b	.
=351	=351
[1b	p
=352	=352
*^	*
1b	1d	.
*v	*v	*
=353	=353
(4d#	.
[4A) [4a	.
2A 2a	.
=354	=354
4.G 4.g	f
[8f#	.
(8f#L	p
8e)	.
(8g#L	.
8b)	.
=355	=355
(4.dd#	.
8ee	.
8bL	.
8ff#	.
8ee	.
8dd#)	.
=356	=356
(4.ee	.
8ff#	.
8bL	.
8gg#	.
8ff#	.
8ee#)	.
=357	=357
(8aL	<
8aa)	.
2.f# 2.dd#	.
=358	=358
(4e 4ee	f
8g	.
8f#)	[
8f#L	p
16g#	.
16g	.
(8GL 8g	.
8f#)	.
=359	=359
(4G#	.
4A	.
4B	.
4c#)	.
=360	=360
(8cL	.
4.B)	.
=361||	=361||
*M12/8	*
!LO:TX:a:B:t=Tempo 1	!
8r	pp
(8e	.
8e	.
8eL	.
8e	.
8e)	.
=362	=362
(8eL	.
8e-)	.
8e-)	.
(8cL 8e-	.
8c 8e-	.
8c) 8e-	.
(8cL 8e-	.
8c 8e-	.
8c) 8e-	.
(8cL 8e-	.
8c 8e-	.
8c) 8e-	.
=363	=363
*k[b-e-a-d-]	*
*A-:	*
(8d-L 8e-	.
8d- 8e-	.
8d-) 8e-	.
(8d-L 8e-	.
8d- 8e-	.
8d-) 8e-	.
(8d-L 8e-	.
8d- 8e-	.
8d-) 8e-	.
(8d-L 8e-	.
8d- 8e-	.
8d-) 8e-	.
=364	=364
!LO:TX:t=cresc.	!
(8e-L	<
8A 8e-	.
8A) 8e-	.
(8cL 8e-	.
8c 8e-	.
8c) 8e-	.
(8B-L	.
8B- 8f	.
8d-) 8f	.
(8d-L 8f	.
8d- 8f	.
8d-) 8f	.
=365	=365
8cL 8a-	p
8c 8a-	.
8c 8a-	.
!LO:TX:t=cresc.	!
8a-L	.
8a-	.
8c- 8a-	.
8gJ	p
(8B-L 8e-	.
8B-) 8e-	.
(8B-L 8e-	.
8B- 8e-	.
8B-) 8e-	.
=366	=366
8cL 8e-	.
8ee-	.
8ee-	.
(8ee-L	.
8ee-	.
8ee-)	.
(8ee-L	.
8ee-	.
8ee-)	.
(8ee-L	.
8ee-	.
8ee-)	.
=367	=367
(8e-L 8ee-	.
8ff	.
8ee-)	.
(8e-L 8ee-	.
8e- 8ee-	.
8e-) 8ee-	.
(8e-L 8ee-	.
8e- 8ee-	.
8e-) 8ee-	.
(8e-L 8b-	.
8e- 8b-	.
8g) 8b-	.
=368	=368
!LO:TX:t=cresc.	!
8ccL	<
8cc	.
8A-	.
(8A-L	.
8B-	.
8c)	.
8cJ	.
8GL 8g	.
8G 8g	.
8a-L	>
8a-	.
8d 8f	]
=369	=369
8A-L 8f	p
8A- 8f	.
8A- 8f	.
8A-L 8f	.
8A- 8f	.
8A- 8f	.
8GL 8e-	.
(8G	.
8A-)	.
(8A-L	.
8B-	.
8c)	.
=370	=370
8B-L 8e-	.
8e- 8ee-	.
8e- 8ee-	.
8e-L 8ee-	.
8e- 8ee-	.
8e- 8ee-	.
8e-L 8ee-	.
8e- 8ee-	.
8e- 8ee-	.
8e-L 8ee-	.
8e- 8ee-	.
8e- 8ee-	.
=371	=371
!LO:TX:t=rinf.    -              -              -	!
8e-L 8ee-	.
8e- 8ee-	.
8e- 8ee-	.
8e-L 8ee-	.
8e- 8ee-	.
8e- 8ee-	.
8e-L 8ee-	.
8e- 8ee-	.
8e- 8ee-	.
8e-L 8ee-	.
8e- 8ee-	.
8e- 8ee-	.
=372	=372
8dJ 8dd	.
8A-L 8d	.
8A- 8d	.
8A-L 8d	.
8A- 8d	.
8A- 8d	.
8A-L 8d	.
8A- 8d	.
8A- 8d	.
8A-L 8d	.
8A- 8e-	.
8A- 8f	.
=373	=373
8A-L 8e-	p
8c 8e-	.
8A- 8e-	.
8GL 8e-	.
8B- 8e-	.
8G 8e-	.
8A-L 8e-	.
!LO:TX:t=cresc.	!
(8e-	<
8f	.
8f#L	.
8g	.
8a-)	.
=374	=374
(8f#L	.
[4g)	.
[4g	.
(16g	.
16f)	.
[4f	.
(16f	.
16e-)	.
[4f	.
(16f	.
16g)	.
=375	=375
(4g	rfz
[8a)	.
[4a	.
(16a	.
16g-)	.
[4g-	.
(16g-	.
16f)	.
[4g	.
(16g	.
16a)	.
=376	=376
[4.a- [4.b-	rfz
[4a- [4b-	.
(16a- 16b-	.
16cc)	.
[4dd	.
(16dd	.
16ee-)	.
[4ff	.
(16ff	.
16gg)	.
=377	=377
(16ggLL	.
8.aa-	.
16ee-LL	.
16cc)	.
[4b-	.
(16b-	.
16g)	.
!LO:TX:t=cresc.	!
(8ccL	<
[8a-)	.
(16a-	.
16e-)	.
(4e-	.
16dd-	.
16b-)	.
=378	=378
!LO:TX:t=dim.	!
[4cc	>
(16cc	.
16b-)	.
[4a-	.
(16a-	.
16f-)	.
[4a-	.
(16a-	.
16e-)	.
[4dd-	.
(16dd-	.
16b-)	.
=379	=379
4a-	p
8r	.
4g 4ee-	.
8r	.
4a-	.
8r	.
4r	.
8r	.
=380	=380
8a-L	.
8dd-	.
8a-T	.
qqg	.
qqa-	.
8a-L	.
8aa-	.
8cct	.
qqb-	.
qqcc	.
4dd-	.
8r	.
4r	.
8r	.
=381	=381
1.r	.
=382	=382
1.r	.
=383	=383
4r	.
8r	.
!LO:TX:t=pizz.	!
4d-	.
8r	.
4r	.
8r	.
4B-	.
8r	.
=384	=384
4r	.
8r	.
4A-	.
8r	.
4r	.
!LO:TX:t=arco	!
(8f##	.
4g#	.
8b#)	.
=385||	=385||
*k[f#c#g#d#]	*
*c#:	*
[2.cc#	.
!LO:TX:t=cresc.	!
4cc#	<
(8ee	.
4gg#	.
8b	.
=386	=386
4a	.
8cc#	.
4ee	.
8g#	.
4f#	.
8a	.
4cc#	.
8e)	.
=387	=387
(4cc#	p
8d#	.
4b#	.
8d#)	.
4e 4cc#	.
8r	.
4r	.
8r	.
=388	=388
1.r	.
=389	=389
2.r	.
([4.c#	p
4c#	.
8d#	.
=390	=390
4e	.
8f##	.
4g#	.
8b#)	.
2.cc#	.
=391	=391
4e 4cc#	.
!LO:TX:t=cresc.	!
(8c#	<
4c#)	.
8d	.
4e	.
8f#	.
4g#	.
8a)	[
=392||	=392||
*k[b-e-a-d-]	*
*A-:	*
!LO:TX:t=p dolce	!
(8gL	.
8a-	.
8c	.
8c-L	.
8A-	.
8B-)	.
(8B-L	.
8c	.
8cc	.
8fL	.
8b-	.
8g)	.
=393	=393
!LO:TX:t=cresc.	!
(8e-L	<
8c	.
8cc	.
8ffL	.
8b-	.
8dd-)	.
(8dd-L	.
8bb-)	.
8bb-	.
(16bb-LL	>
16b-	.
8ffL	.
16ee-	.
16dd-)	]
=394	=394
8ccL	p
[4c	.
8cL	.
[4c	.
8cL	.
[4c	.
8cL	.
[4c	.
=395	=395
8cL	.
[4d-	.
8d-L	.
[4d-	.
8d-L	.
[4d-	.
8d-L	.
(4d-	.
=396	=396
8e-L)	.
[4A-	.
8A-L	.
4A- 4a-	.
8gL	.
4B- 4g	.
8cL	.
[4c [4a-	.
=397	=397
!LO:TX:t=cresc.	!
8cL 8a-	<
[4c [4a-	.
8cL 8a-	.
4c 4a-	.
8b-L	p
[4B- [4e-	.
8.B-L 8.e-	.
(16f	.
16g	.
16a-)	.
=398	=398
!LO:TX:t=cresc.	!
(16b-LL	.
16cc	.
16dd-	.
16cc	.
16b-	.
16a-	.
16gLL	.
16a-	.
16b-	.
16a-	.
16g	.
16f	.
16e-LL	.
16f	.
16g	.
16a-	.
16b-	.
16cc	.
16dd-LL	.
16ee-	.
16ff	.
16gg	.
16aa-	.
16bb-)	.
=399	=399
(16cccLL	.
16dd-	.
16ee-	.
16dd-	.
16cc	.
16dd-	.
16ccLL	.
16dd-	.
16ee-	.
16dd-	.
16cc	.
16b-)	.
(16b-LL	.
16a-	.
16b-	.
16cc	.
16dd-	.
16ee-	.
16ffLL	.
16gg	.
16aa-	.
16bb-	.
16ccc-	.
16ccc)	.
=400	=400
16ddd-JJ	f
(16a-LL	.
16b-	.
16cc	.
16dd-	.
16cc	.
16dd-LL	.
16cc	.
16dd-	.
16cc	.
16dd-)	.
16ee-	[
(16ffLL	p
16ee-	.
16ff	.
16ee-	.
16ff	.
16gg-	.
!LO:TX:t=cresc.	!
16aa-LL	.
16gg	.
16aa-	.
16gg	.
16aa-	.
16bb-)	.
=401	=401
(16a-LL	.
16gg	.
16aa-	.
16ee-	.
16ff	.
16ee-	.
16dd-LL	.
16cc	.
16dd-	.
16b-	.
16a	.
16b-)	.
(16a-LL	.
16g	.
16a-	.
16e-	.
16f	.
16e-	.
16d-LL	.
16c	.
16d-	.
16B-	.
16A	.
16B-)	.
=402	=402
!LO:TX:t=dim.	!
([4e-	>
16e-	.
16cc)	.
(16fLL	.
16f-	.
16e-LL	.
8d-	.
16b-)	.
(16a-LL	.
16d-	.
8.cL	.
16a-)	]
!LO:TX:t=cresc.	!
(8gL	.
8.G)	.
16dd-	.
=403	=403
2.r	.
8e-L	pp
8e-	.
8e-	.
8e-L	.
8e-	.
8e-	.
=404	=404
8e-L	.
8e-	.
8e-	.
8e-L	.
8e-	.
8e-	.
8e-L	.
8e-	.
8e-	.
8e-L	.
8e-	.
8e-	.
=405	=405
8fL	.
8f	.
8f	.
8fL	.
8f	.
8f	.
8fL	.
8f	.
8f	.
8fL	.
8f	.
8f	.
=406	=406
!LO:TX:t=cresc.	!
8f-L	<
8f-	.
(16f-	.
16e-)	.
(8fL	.
8dd-)	.
8dd-	.
8dd-L	.
(16dd-	.
16cc)	.
8cc	.
8ccL	>
(16cc	.
16dd-)	.
8d-	.
=407	=407
4d-	p
8r	.
4d-	.
8r	.
2.g#	pp
=408	=408
4g#	.
8r	.
4a	.
8r	.
4g#	.
8r	.
4r	.
8r	.
=409	=409
4a-	p
8r	.
4g 4b-	.
8r	.
4a-	.
8r	.
4g 4b-	.
8r	.
=410	=410
8r	.
(16g	.
16a-)	.
(16a-LL	.
16g)	.
(16gLL	.
16f	.
16e-	.
16d-)	.
(16fLL	.
16f-)	.
4e-	.
16A-	.
[16B-	.
16B-LL	.
(16d-	.
16B-	.
16c)	.
!LO:TX:t=cresc.	!
(16a-LL	.
16b-	.
=411	=411
!LO:TX:B:t=Rit.	!
!LO:TX:B:t=Rit.	!
!LO:TX:B:t=Rit.	!
!LO:TX:B:t=Rit.	!
4g)	.
8g	.
8gL	.
8e- 8ee-	.
8e- 8ee-	.
16%3e-L 16%3ee-	p
16%3e- 16%3ee-	pp
4.r	.
=412	=412
*k[b-e-a-]	*
*E-:	*
*M3/4	*
!LO:TX:t=pizz.	!
8gL 8b-	.
8r	.
8fL 8b-	.
8r	.
8gL 8b-	.
8r	.
=413	=413
4d 4b-	.
4r	.
4r	.
=414!|:	=414!|:
2.r	.
=415	=415
2.r	.
=416	=416
2.r	.
=417	=417
2.r	.
=418	=418
2.r	.
=419	=419
2.r	.
=420	=420
2.r	.
=421	=421
!LO:TX:t=arco	!
(2b-	pp
4a-T)	.
=422	=422
4g	.
4r	.
4r	.
=423	=423
(2ee-	.
4at)	.
=424	=424
4b-	.
4r	.
4r	.
=425	=425
(2dd	.
qqee-T)	.
qqffT	.
4ffT	.
=426	=426
(2g	.
qqat)	.
qqb-T	.
4b-T	.
=427	=427
(4a	.
!LO:TX:t=cresc.	!
8.a-L)	<
16e-	.
8fL	.
16r	.
16a-	[
=428	=428
4G 4g	f
8.r	.
16g	p
8a-	.
16r	.
16cc	.
=429	=429
4b-	.
8.r	.
16b-	.
8ccT	.
16r	.
16ee-	.
=430	=430
(2dd	.
4ee-T)	.
=431	=431
4ff	.
(4f	.
4gt)	.
=432	=432
(2a-	.
4at)	.
=433	=433
[2.b-	.
=434	=434
[2.b-	.
=435	=435
4b-	.
(4b-	.
4dd)	.
=436	=436
4ee-	.
[2b-	.
=437	=437
(2b-	p
!LO:TX:t=cresc.	!
4b)	.
=438	=438
4c	f
4cc	.
4b	.
=439	=439
4r	.
4cc	p
4r	.
=440	=440
4r	.
4cc	.
4r	.
=441	=441
4f	f
4dd	.
4dd	.
=442	=442
8ee-L	p
8g	.
8e-L	.
8g	.
8f	.
8e-	.
=443	=443
*^	*
8ccL	8fL	.
8ee-	8f	.
8ccL	8fL	.
8ee-	8f	.
8ddL	8fL	.
8cc	8f	.
*v	*v	*
=444	=444
!LO:TX:t=cresc.	!
8ccL	<
8b-	.
8aL	.
8g	.
8f	.
8e-	.
=445	=445
8dL	.
8c	.
8B-	.
8A	.
8G	.
8f	.
=446	=446
8e-L	f
8e-	.
8e-	.
8e-	.
8ee-L	.
8ee-	.
=447	=447
4dd	.
8B-L	.
8r	.
4r	.
=448:|!	=448:|!
4dd	.
8B-L	.
16r	.
16B	ff
8c	.
16r	.
16e-	.
=449!|:	=449!|:
8cL	.
16r	.
16d	.
8fL	.
16r	.
16e-	.
8fL	.
16r	.
16a-	.
=450	=450
8gL	.
16r	.
16a	.
8ccL	.
16r	.
16b	.
8ccL	.
16r	.
16ee-	.
=451	=451
8ddL	.
16r	.
16ee-	.
8ffL	.
16r	.
16ee	.
8ffL	.
16r	.
16f#	.
=452	=452
8gL	.
16r	.
16g	p
8ggL	.
8r	.
4r	.
=453	=453
8.r	.
16e-	.
4ee-	.
4r	.
=454	=454
2.r	.
=455	=455
8.r	.
16g	.
4ff	.
4r	.
=456	=456
2.r	.
=457	=457
8.r	.
16g	.
4ee-	.
4r	.
=458	=458
4r	.
8.r	.
!LO:TX:t=cresc.	!
16g	<
8b-	.
16r	.
16cc	[
=459	=459
4a-	p
8.r	.
16a-	.
8b-	.
16r	.
16dd-	.
=460	=460
4cc	.
8.r	.
16e	.
8f	.
16r	.
16a-	.
=461	=461
4g	.
8.r	.
16g	.
8a-	.
16r	.
16cc	.
=462	=462
8b-L	.
16r	.
16cc	.
8a-L	.
16r	.
16a-	.
!LO:TX:t=cresc.	!
8b-L	.
16r	.
16cc	.
=463	=463
4dd-	p
8.r	.
16dd-	.
8ee-	.
16r	.
16gg-	.
=464	=464
4ff	.
8.r	.
16cc	.
8dd-	.
16r	.
16ff	.
=465	=465
4ee-	.
8.r	.
16ee-	.
8ff	.
16r	.
16aa-	.
=466	=466
4gg-	.
4r	.
4r	.
=467	=467
8.r	.
!LO:TX:t=cresc.	!
16A-	<
4a-	.
4r	.
=468	=468
8.r	.
16B-	.
4b-	.
4r	.
=469	=469
8.r	.
16B-	.
4b-	.
4r	.
=470	=470
4r	.
8.r	.
16b-	sf
8cc-L	.
16r	.
16cc-	.
=471	=471
8b-L	.
16r	.
16g-	.
8a-L	.
16r	.
16dd-	.
8dd-L	.
16r	.
16cc-	.
=472	=472
8b-L	ff
16r	.
16dd-	.
8b-L	.
16r	.
16dd-	.
8b-L	.
16r	.
16dd-	.
=473	=473
8g-L	.
16r	.
16cc-	.
8g-L	.
16r	.
16cc-	.
8g-L	.
16r	.
16cc-	.
=474	=474
8g-L	.
16r	.
16b-	.
8g-L	.
16r	.
16b-	.
8g-L	.
16r	.
16b-	.
=475	=475
8fL	.
16r	.
16dd-	.
8fL	.
16r	.
16dd-	.
8fL	.
16r	.
16dd-	.
=476	=476
8aL	pp
16r	.
16cc#	.
8aL	.
16r	.
16cc#	.
8aL	.
16r	.
16cc#	.
=477	=477
8aL	.
16r	.
16dd	.
8aL	.
16r	.
16dd	.
8aL	.
16r	.
16dd	.
=478	=478
8dL 8dd	f
16r	.
16d	.
8eL	.
16r	.
16g	.
8f#L	.
16r	.
16g	.
=479	=479
8b-L	.
16r	.
16a	.
8b-L	.
16r	.
16dd	.
8ccL	.
16r	.
16dd	.
=480	=480
8ee-L	.
16r	.
16dd	.
8eeL	.
16r	.
16gg	.
8ff#L	.
16r	.
16gg	.
=481	=481
8b-L	.
16r	.
16a	.
8ccL	.
16r	.
16dd	.
4ee-	.
=482||	=482||
*M2/4	*
!LO:TX:a:B:t=Allegro	!
2r	.
=483	=483
2r	.
=484	=484
2r	.
=485	=485
2r	.
=486	=486
2r	.
=487||	=487||
*M3/4	*
[2.f# [2.a	pp
=488	=488
4f# 4a	.
8.r	.
16B	.
8d	.
16r	.
16e-	.
=489	=489
4f	.
4r	.
4r	.
=490||	=490||
*M2/4	*
!LO:TX:a:B:t=Allegro	!
2r	.
=491	=491
2r	.
=492	=492
2r	.
=493||	=493||
*M3/4	*
2.r	.
=494	=494
4r	.
8.r	.
16c	pp
8g	.
16r	.
16a-	.
=495	=495
4b-	.
4r	.
4r	.
=496	=496
4r	.
8.r	.
16g	.
8cc	.
16r	.
16ee	.
=497	=497
4ff	.
4r	.
4r	.
=498	=498
4r	.
8.r	.
16f	.
!LO:TX:t=cresc.	!
8e	<
16r	.
16g	.
=499	=499
4f	.
8.r	.
16A-	.
8B-	.
16r	.
16b-	.
=500	=500
4b-	.
8.r	.
16b-	.
8b-	.
16r	.
16b-	.
=501	=501
8b-L	f
16r	.
16aa-	.
8ggL	.
8g	.
8a-L	.
8d	.
=502	=502
!LO:TX:t=sempre	!
4e-	.
8.r	.
16e-	f
4ee-	.
=503	=503
4r	.
8.r	.
16e-	.
4ee-	.
=504	=504
4r	.
8.r	.
16B-	.
4b-	.
=505	=505
4r	.
8.r	.
16ff	.
8ee-	.
16r	.
16cc	.
=506	=506
4dd	.
8.r	.
16dd	.
8cc	.
16r	.
16a	.
=507	=507
4b-	.
8.r	.
16b-	.
8a-	.
16r	.
16f	.
=508	=508
(2g	.
4fT)	.
=509	=509
4e-	.
8r	.
8e-	.
8d	.
8dd	.
=510	=510
8e-L	.
8ee-	.
8e-	.
8ee-	.
8fL	.
8ee-	.
=511	=511
8gL	.
8ee-	.
8g	.
8ee-	.
8a-L	.
8g	.
=512	=512
8fL	.
8b-	.
8f	.
8b-	.
8gL	.
8b-	.
=513	=513
4a-	.
8.r	.
16a-	.
8g	.
16r	.
16e-	.
=514	=514
4f	.
8.r	.
16b-	.
8cc	.
16r	.
16ee-	.
=515	=515
8ddL	.
16r	.
16d	.
4dd	.
4r	.
=516	=516
8.r	.
16B-JJ	.
8b-L	.
16r	.
16B-	.
8b-L	.
16r	.
16B-	.
=517	=517
8b-L	.
16r	.
16B-	.
8b-L	.
16r	.
16B-	.
8b-L	.
16r	.
16B-	.
=518	=518
8b-L	.
16r	.
16B-	.
8b-L	.
16r	.
16B-	.
8b-L	.
16r	.
16B-	.
=519	=519
!LO:TX:t=cresc.	!
8b-L	.
16r	.
16B-	.
8b-L	.
16r	.
16B-	.
8b-L	.
16r	.
16B-	.
=520	=520
8b-L	.
16r	.
16G	.
8b-L	.
16r	.
16G	.
8b-L	.
16r	.
16G	.
=521	=521
8gL	.
16r	.
16ee-	.
8dd-L	.
16r	.
16dd-	.
8ccL	.
16r	.
16cc	.
=522	=522
4cc	f
4ccc	.
4dd 4bb	.
=523	=523
4r	.
4gg	p
4r	.
=524	=524
4r	.
4a 4ff	.
4r	.
=525	=525
4b- 4ff	f
4b-	.
4b- 4gg	.
=526	=526
4r	.
4cc	p
4r	.
=527	=527
4r	.
4f 4dd	.
4r	.
=528	=528
8gL	f
8f	.
8e-	.
8g	.
8f	.
8e-	.
=529	=529
8cL	p
8B-	.
8A-	.
8c	.
8B-	.
8A-	.
=530	=530
8ffL	.
8ee-	.
8dd	.
8ff	.
8ee-	.
8dd	.
=531	=531
8ffL	.
8dd	.
!LO:TX:t=cresc.	!
8ddL	<
8cc	.
8b-	.
8a-	.
=532	=532
8gL	.
8f	.
8e-	.
8d	.
8c	.
8B-	.
=533	=533
8A-L	f
8G	.
8fL	.
8f	.
8e-L	.
8B-	.
=534	=534
4B-	.
8GL 8e-	.
16r	.
16B	ff
8c	.
16r	.
16e-	.
=535:|!	=535:|!
4B-	f
8e-L	.
16r	.
16ee-	.
8ddL	.
16r	.
16b	.
=536	=536
4cc	.
8cL	.
16r	.
16cc	.
8b-L	.
16r	.
16g	.
=537	=537
4a-	.
8A-L	.
16r	.
16a-	.
8gL	.
16r	.
16B- 16e-	.
=538	=538
8fL	p
16r	.
16b-	.
8b-L	.
16r	.
16b-	.
8aL	.
16r	.
16a	.
=539	=539
8b-L	.
16r	.
16B-	.
8B-L	.
16r	.
16B-	.
8B-L	.
16r	.
16B-	.
=540	=540
8B-L	.
16r	.
16b-	.
8b-L	.
16r	.
16b-	.
8b-L	.
16r	.
16a-	.
=541	=541
8a-L	.
16r	.
16a-	.
8a-L	.
16r	.
16a-	.
8a-L	.
16r	.
16a-	.
=542	=542
8gL	.
16r	.
16d	.
8e-L	.
16r	.
16g	.
8b-L	.
16r	.
16dd	.
=543	=543
8ee-L	.
16r	.
16f	.
8gL	.
16r	.
!LO:TX:t=cresc.	!
16b-	.
8e-L	.
16r	.
16B-	.
=544	=544
(2B-	.
4A-T)	.
=545	=545
8GL	.
16r	.
16f	.
8gL	.
16r	.
16b-	.
8a-L	.
16r	.
16b-	.
=546	=546
8ccL	.
16r	.
16e-	.
8e-L	.
16r	.
16e-	.
8fL	p
16r	.
16d	.
=547	=547
!LO:TX:t=piu piano	!
8e-L	.
16r	.
16d	.
8e-L	.
16r	.
16g	.
8a-L	.
16r	.
16a-	.
=548	=548
8gL	pp
16r	.
16d	.
8e-L	.
16r	.
16g	.
8a-L	.
16r	.
16a-	.
=549	=549
8gL	.
16r	.
16d	.
8e-L	.
16r	.
16G	.
8A-L	.
16r	.
16A-	.
=550	=550
4G	.
8.r	.
16g	pp
8f	.
16r	.
16a-	.
=551	=551
4g	.
4g	.
4r	.
=552	=552
4r	.
8.r	.
!LO:TX:t=sempre pp	!
16b-	.
8b-	.
16r	.
16a- 16b-	.
=553	=553
4g 4b-	.
4b-	.
4r	.
=554	=554
4r	.
4b-	.
4r	.
=555	=555
4r	.
4b-	.
4r	.
=556	=556
4r	.
4b-	.
4r	.
=557||	=557||
!LO:TX:a:B:t=Presto	!
4r	.
!LO:TX:t=cresc.	!
4b-	<
4b-	.
=558	=558
4b-	.
4b-	.
4b-	.
=559	=559
4b-	.
4b-	.
4b-	.
=560	=560
4b-	.
4b-	.
4b-	.
=561!|:	=561!|:
*k[b-e-a-d-g-c-]	*
*e-:	*
4e- 4b-	f
4e- 4b-	pp
4e- 4b-	.
=562	=562
4e- 4b-	.
4e- 4b-	.
4e- 4b-	.
=563	=563
4e- 4b-	.
4e- 4b-	.
4e- 4b-	.
=564	=564
4e- 4b-	.
4e- 4b-	.
4e- 4b-	.
=565	=565
4f 4b-	.
4f 4b-	.
4f 4b-	.
=566	=566
4f 4b-	.
4f 4b-	.
4f 4b-	.
=567	=567
4f 4b-	.
4f 4b-	.
4f 4b-	.
=568	=568
4f 4b-	.
4f 4b-	.
4f 4b-	.
=569	=569
!LO:TX:t=cresc.	!
4e- 4b-	<
4e- 4b-	.
4e- 4b-	.
=570	=570
4e- 4b-	.
4e- 4b-	.
4e- 4b-	.
=571	=571
4e- 4b-	.
4e- 4b-	.
4e- 4b-	.
=572	=572
4e- 4b-	.
4e- 4b-	.
4e- 4b-	.
=573	=573
4g-	.
4a-	.
4a-	.
=574	=574
4g-	.
4a-	.
4a-	.
=575	=575
4a-	.
4a-	.
4a-	.
=576	=576
4a-	.
4a-	.
4a-	.
=577	=577
4a-	.
4a-	.
4a-	.
=578	=578
4a-	.
4a-	.
4a-	.
=579	=579
4a-	f
4a-	.
4a-	.
=580	=580
4a-	p
!LO:TX:t=cresc.	!
4g-	.
4e- 4b-	.
=581:|!	=581:|!
4a-	f
(4f	.
4g-	.
=582	=582
4a-)	ff
(4B-	.
4c	.
=583	=583
4d-)	.
(4f	.
4g-	.
=584	=584
4a-)	.
(4B-	.
4c	.
=585	=585
4d-)	.
(4f	.
4g-	.
=586	=586
4a-)	.
(4B-	.
4c	.
=587	=587
4d-)	.
4r	.
4e-	.
=588	=588
2.d- 2.f	f
=589	=589
2.d- 2.f	sf
=590	=590
2.e	.
=591	=591
2.e	sf
=592	=592
2.d- 2.f	.
=593	=593
2.d- 2.f	sf
=594	=594
2.B--	.
=595	=595
2.B--	.
=596	=596
2.A-	.
=597	=597
2.f	sf
=598	=598
2.f	.
=599	=599
2.f	sf
=600	=600
2.e-	.
=601	=601
2.e-	sf
=602	=602
2.e-	.
=603	=603
2.e-	sf
=604	=604
4d-	pp
4f	.
4f	.
=605	=605
4f	.
4f	.
4f	.
=606	=606
4f	.
4f	.
4f	.
=607	=607
4f	.
4f	.
4f	.
=608	=608
4f	.
4f	.
4f	.
=609	=609
4f	.
4f	.
4f	.
=610	=610
4f	.
4f	.
4f	.
=611	=611
4f	.
4f	.
4f	.
=612	=612
!LO:TX:t=cresc.	!
4f	<
4f	.
4f	.
=613	=613
4f	.
4f	.
4f	.
=614	=614
4f	.
4f	.
4f	.
=615	=615
4f	.
(4g-	.
4a-)	.
=616	=616
4b-	ff
(4cc-	.
4dd-	.
=617	=617
4dd-)	.
4b-	.
4cc-	.
=618	=618
4dd-	.
4ee-	.
4ff	.
=619	=619
4gg-	.
4b-	.
4cc-	.
=620	=620
4dd-	.
4ee-	.
4ff	.
=621	=621
4gg-	.
4gg-	.
4aa-	.
=622	=622
2.bb-	f
=623	=623
2.d-	sf
=624	=624
2.e-	.
=625	=625
2.e- 2.ee-	sf
=626	=626
2.dd-	.
=627	=627
2.dd-	sf
=628	=628
2.ff	.
=629	=629
2.ff	sf
=630	=630
2.gg-	.
=631	=631
2.gg-	sf
=632	=632
2.gg-	.
=633	=633
2.gg-	sf
=634	=634
2.aa-	.
=635	=635
2.aa-	sf
=636	=636
2.aa-	.
=637	=637
2.aa-	sf
=638	=638
4b- 4gg-	pp
4b-	.
4b-	.
=639	=639
4b-	.
4b-	.
4b-	.
=640	=640
4b-	.
4b-	.
4b-	.
=641	=641
4b-	.
4b-	.
4b-	.
=642	=642
4a- 4b-	.
4a- 4b-	.
4a- 4b-	.
=643	=643
4a- 4b-	.
4a- 4b-	.
4a- 4b-	.
=644	=644
4a- 4b-	.
4a- 4b-	.
4a- 4b-	.
=645	=645
4a- 4b-	.
4a- 4b-	.
4a- 4b-	.
=646	=646
!LO:TX:t=cresc.	!
4g- 4b-	<
4g- 4b-	.
4g- 4b-	.
=647	=647
4g- 4b-	.
4g- 4b-	.
4g- 4b-	.
=648	=648
4g- 4b-	.
4g- 4b-	.
4g- 4b-	.
=649	=649
4g- 4b-	.
(4B-	.
4c)	.
=650	=650
4d	ff
(4e-	.
4f)	.
=651||	=651||
*k[b-e-]	*
*B-:	*
4f	.
(4B-	.
4c	.
=652	=652
4d)	.
(4e-	.
4f	.
=653	=653
4f)	.
(4B-	.
4c	.
=654	=654
4d)	.
(4e-	.
4f)	.
=655	=655
4f	.
(4b-	.
4a	.
=656	=656
4g)	.
(4f	.
4e-)	.
=657	=657
4d	.
(4d	.
4c)	.
=658	=658
2.B-	f
=659	=659
2.ff	sf
=660	=660
2.gg	.
=661	=661
2.gg	sf
=662	=662
2.ff	.
=663	=663
2.ff	sf
=664	=664
2.aa	.
=665	=665
2.aa	sf
=666	=666
2.bb-	.
=667	=667
2.ff	sf
=668	=668
2.ee 2.gg	.
=669	=669
2.ee 2.gg	sf
=670	=670
2.ff	.
=671	=671
2.ff	sf
=672	=672
2.cc 2.aa	.
=673	=673
2.cc 2.aa	sf
=674	=674
2.ff	.
=675	=675
2.ff	sf
=676	=676
2.cc 2.aa	.
=677	=677
2.cc 2.aa	sf
=678	=678
2.ff	.
=679	=679
!LO:TX:t=dim.	!
2.ff	>
=680	=680
2.cc 2.aa	p
=681	=681
!LO:TX:t=dim.	!
2.cc 2.aa	>
=682	=682
2.cc 2.aa	.
=683||	=683||
*k[b-e-a-]	*
*E-:	*
2.r	]
=684	=684
[2.dd [2.ff	pp
=685	=685
2.dd 2.ff	.
=686	=686
(2ff	.
4ee-T)	.
=687	=687
!LO:TX:t=sempre pp	!
[2.dd	.
=688	=688
[2.dd	.
=689	=689
2.dd	.
=690	=690
[2.ee-	.
=691	=691
(4ee-	.
4a-)	.
(4B-	.
=692	=692
2A-)	.
4B-T)	.
=693	=693
(2c	.
qqbt)	.
qqccT	.
4ccT	.
=694	=694
4f	.
4r	.
4r	.
=695	=695
(2b-	.
4a-T)	.
=696	=696
4g	.
4r	.
4r	.
=697	=697
(2ee-	.
4at)	.
=698	=698
4b-	.
4r	.
4r	.
=699	=699
(2dd	.
qqee-T)	.
qqffT	.
4ffT	.
=700	=700
(2g	.
qqat)	.
qqb-T	.
4b-T	.
=701	=701
(4a	.
!LO:TX:t=cresc.	!
8.a-L)	.
16e-	.
8fL	.
16r	.
16a-	fp
=702	=702
4G 4g	.
8.r	.
16g	.
8a-	.
16r	.
16a-	.
=703	=703
4b-	.
8.r	.
16b-	.
8cc	.
16r	.
16ee-	.
=704	=704
(2dd	.
4ee-T)	.
=705	=705
4ff	.
(4f	.
4gt)	.
=706	=706
(2a-	.
4at)	.
=707	=707
[2.b-	.
=708	=708
[2.b-	.
=709	=709
4b-	.
(4b-	.
4dd)	.
=710	=710
(4ee-	.
[2b-)	.
=711	=711
!LO:TX:t=p cresc.	!
(2b-	.
4b)	.
=712	=712
4c	f
4cc	.
4b	.
=713	=713
4r	.
4cc	p
4r	.
=714	=714
4r	.
4cc	.
4r	.
=715	=715
4f	f
4dd	.
4dd	.
=716	=716
8ee-L	p
8g	.
8e-L	.
8g	.
8f	.
8e-	.
=717	=717
*^	*
8ccL	8fL	.
8ee-	8f	.
8cc	8f	.
8ee-	8f	.
8dd	8f	.
8cc	8f	.
*v	*v	*
=718	=718
!LO:TX:t=cresc.	!
8ccL	<
8b-	.
8aL	.
8g	.
8f	.
8e-	.
=719	=719
8dL	.
8c	.
8B-	.
8A	.
8GL	.
8f	.
=720	=720
8e-L	[
8e-	.
8e-	.
8e-	.
8ee-L	.
8ee-	.
=721	=721
4dd	.
8B-L	.
16r	.
16BLL	.
8c	.
16r	.
16e-	.
=722	=722
8cL	.
16r	.
16d	.
8fL	.
16r	.
16e-	.
8fL	.
16r	.
16a-	.
=723	=723
8gL	.
16r	.
16a	.
8ccL	.
16r	.
16b	.
8ccL	.
16r	.
16ee-	.
=724	=724
8ddL	.
16r	.
16ee-	.
8ffL	.
16r	.
16ee	.
8ffL	.
16r	.
16f#	.
=725	=725
8gL	.
16r	.
16g	.
8ggL	.
8r	.
4r	.
=726	=726
8.r	.
16g	p
4ee-	.
4r	.
=727	=727
2.r	.
=728	=728
8.r	.
16g	.
4ff	.
4r	.
=729	=729
2.r	.
=730	=730
8.r	.
16g	.
4ee-	.
4r	.
=731	=731
4r	.
8.r	.
!LO:TX:t=cresc.	!
16g	.
8b-	.
16r	.
16cc	.
=732	=732
4a-	p
8.r	.
16a-	.
8b-	.
16r	.
16dd-	.
=733	=733
4cc	.
8.r	.
16e	.
8f	.
16r	.
16a-	.
=734	=734
4g	.
8.r	.
16g	.
8a-	.
16r	.
16cc	.
=735	=735
8b-L	.
16r	.
16cc	.
8a-L	.
16r	.
16a-	.
!LO:TX:t=cresc.	!
8b-L	.
16r	.
16cc	.
=736	=736
4dd-	p
8.r	.
16dd-	.
8ee-	.
16r	.
16gg-	.
=737	=737
4ff	.
8.r	.
16cc	.
8dd-	.
16r	.
16ff	.
=738	=738
4ee-	.
8.r	.
16ee-	.
8ff	.
16r	.
16aa-	.
=739	=739
4gg-	.
4r	.
4r	.
=740	=740
8.r	.
!LO:TX:t=cresc.	!
16A-	<
4a-	.
4r	.
=741	=741
8.r	.
16B-	.
4b-	.
4r	.
=742	=742
8.r	.
16B-	.
4b-	.
4r	.
=743	=743
4r	[
8.r	.
16b-	f
8cc-	.
16r	.
16cc-	.
=744	=744
8b-L	.
16r	.
16g-	.
8a-L	.
16r	.
16dd-	.
8dd-L	.
16r	.
16cc-	[
=745	=745
8b-L	ff
16r	.
16dd-	.
8b-L	.
16r	.
16dd-	.
8b-L	.
16r	.
16dd-	.
=746	=746
8g-L	.
16r	.
16cc-	.
8g-L	.
16r	.
16cc-	.
8g-L	.
16r	.
16cc-	.
=747	=747
8g-L	.
16r	.
16b-	.
8g-L	.
16r	.
16b-	.
8g-L	.
16r	.
16b-	.
=748	=748
8fL	.
16r	.
16dd-	.
8fL	.
16r	.
16dd-	.
8fL	.
16r	.
16dd-	.
=749	=749
8aL	pp
16r	.
16cc#	.
8aL	.
16r	.
16cc#	.
8aL	.
16r	.
16cc#	.
=750	=750
8aL	.
16r	.
16dd	.
8aL	.
16r	.
16dd	.
8aL	.
16r	.
16dd	.
=751	=751
8dL 8dd	f
16r	.
16d	.
8eL	.
16r	.
16g	.
8f#L	.
16r	.
16g	.
=752	=752
8b-L	.
16r	.
16a	.
8b-L	.
16r	.
16dd	.
8ccL	.
16r	.
16dd	.
=753	=753
8ee-L	.
16r	.
16dd	.
8eeL	.
16r	.
16gg	.
8ff#L	.
16r	.
16gg	.
=754	=754
8b-L	.
16r	.
16a	.
8ccL	.
16r	.
16dd	.
4ee-	.
=755||	=755||
*M2/4	*
!LO:TX:a:B:t=Allegro	!
2r	.
=756	=756
2r	.
=757	=757
2r	.
=758	=758
2r	.
=759	=759
2r	.
=760||	=760||
*M3/4	*
!LO:TX:a:B:t=Tempo I	!
[2.f# [2.a	pp
=761	=761
4f# 4a	.
8.r	.
16B	.
8d	.
16r	.
16e-	.
=762	=762
4f	.
!LO:TX:a:B:t=Allegro	!
4r	.
4r	.
=763||	=763||
*M2/4	*
2r	.
=764	=764
2r	.
=765	=765
2r	.
=766||	=766||
*M3/4	*
!LO:TX:a:B:t=Tempo I	!
2.r	.
=767	=767
4r	.
8.r	.
16c	pp
8g	.
16r	.
16a-	.
=768	=768
4b-	.
4r	.
4r	.
=769	=769
4r	.
8.r	.
16g	.
8cc	.
16r	.
16ee	.
=770	=770
4ff	.
4r	.
4r	.
=771	=771
4r	.
8.r	.
!LO:TX:t=cresc.	!
16f	<
8e	.
16r	.
16g	.
=772	=772
4f	.
8.r	.
16A-	.
8B-	.
16r	.
16b-	.
=773	=773
4b-	.
8.r	.
16b-	.
8b-	.
16r	.
16b-	.
=774	=774
8b-L	f
16r	.
16aa-	.
8ggL	.
8g	.
8a-L	.
8d	.
=775	=775
!LO:TX:t=sempre f	!
4e-	.
8.r	.
16e-	.
4ee-	.
=776	=776
4r	.
8.r	.
16e-	.
4ee-	.
=777	=777
4r	.
8.r	.
16B-	.
4b-	.
=778	=778
4r	.
8.r	.
16ff	.
8ee-	.
16r	.
16cc	.
=779	=779
4dd	.
8.r	.
16dd	.
8cc	.
16r	.
16a	.
=780	=780
4b-	.
8.r	.
16b-	.
8a-	.
16r	.
16f	.
=781	=781
(2g	.
4fT)	.
=782	=782
4e-	.
8r	.
8e-	.
8d	.
8dd	.
=783	=783
8e-L	.
8ee-	.
8e-	.
8ee-	.
8fL	.
8ee-	.
=784	=784
8gL	.
8ee-	.
8g	.
8ee-	.
8a-L	.
8g	.
=785	=785
8fL	.
8b-	.
8f	.
8b-	.
8gL	.
8b-	.
=786	=786
4a-	.
8.r	.
16a-	.
8g	.
16r	.
16e-	.
=787	=787
4f	.
8.r	.
16b-	.
8cc	.
16r	.
16ee-	.
=788	=788
8ddL	.
16r	.
16d	.
4dd	.
4r	.
=789	=789
8.r	.
16B-	.
8b-L	.
16r	.
16B-	.
8b-L	.
16r	.
16B-	.
=790	=790
8b-L	.
16r	.
16B-	.
8b-L	.
16r	.
16B-	.
8b-L	.
16r	.
16B-	.
=791	=791
8b-L	.
16r	.
16B-	.
8b-L	.
16r	p
16B-	.
8b-L	.
16r	.
16B-	.
=792	=792
!LO:TX:t=cresc.	!
8b-L	<
16r	.
16B-	.
8b-L	.
16r	.
16B-	.
8b-L	.
16r	.
16B-	.
=793	=793
8b-L	.
16r	.
16G	.
8gL	.
16r	.
16G	.
8gL	.
16r	.
16G	.
=794	=794
8gL	.
16r	.
16ee-	.
8dd-L	.
16r	.
16dd-	.
8ccL	.
16r	.
16cc	[
=795	=795
4cc	f
4ccc	.
4dd 4bb	.
=796	=796
4r	.
4gg	p
4r	.
=797	=797
4r	.
4a 4ff	.
4r	.
=798	=798
4b- 4ff	f
4b-	.
4b- 4gg	.
=799	=799
4r	.
4cc	p
4r	.
=800	=800
4r	.
4f 4dd	.
4r	.
=801	=801
8gL	f
8f	.
8e	.
8g	.
8f	.
8e	.
=802	=802
8cL	p
8B-	.
8A-	.
8c	.
8B-	.
8A-	.
=803	=803
8ffL	.
8ee-	.
8dd	.
8ff	.
8ee-	.
8dd	.
=804	=804
!LO:TX:t=cresc.	!
8ffL	<
8dd	.
8ddL	.
8cc	.
8b-	.
8a-	.
=805	=805
8gL	.
8f	.
8e-L	.
8d	.
8c	.
8B-	.
=806	=806
8A-L	f
8G	.
8fL	.
8f	.
8e-	.
8B-	.
=807	=807
4B-	.
8e-L	.
16r	.
16ee-	.
8ddL	.
16r	.
16b	.
=808	=808
4cc	.
8cL	.
16r	.
16cc	.
8b-L	.
16r	.
16g	.
=809	=809
4a-	.
8A-L	.
16r	.
16a-	.
8gL	.
16r	.
16B- 16e-	.
=810	=810
8fL	p
16r	.
16b-	.
8b-L	.
16r	.
16b-	.
8aL	.
16r	.
16a	.
=811	=811
8b-L	.
16r	.
16B-	.
8B-L	.
16r	.
16B-	.
8B-L	.
16r	.
16B-	.
=812	=812
8B-L	.
16r	.
16b-	.
8b-L	.
16r	.
16b-	.
8b-L	.
16r	.
16a-	.
=813	=813
8a-L	.
16r	.
16a-	.
8a-L	.
16r	.
16a-	.
8a-L	.
16r	.
16a-	.
=814	=814
8gL	.
16r	.
16d	.
8e-L	.
16r	.
16g	.
8b-L	.
16r	.
16dd	.
=815	=815
8ee-L	.
16r	.
16f	.
8gL	.
16r	.
16b-	.
8e-L	.
16r	.
16B-	.
=816	=816
!LO:TX:t=dim.	!
(2B-	.
4A-T)	.
=817	=817
8GL	.
16r	.
16f	.
8gL	.
16r	.
16b-	.
8a-L	.
16r	.
16b-	.
=818	=818
8ccL	.
16r	.
16e-	.
8e-L	.
16r	.
16e-	.
8fL	p
16r	.
16d	.
=819	=819
!LO:TX:t=piu piano	!
8e-L	.
16r	.
16d	.
8e-L	.
16r	.
16g	.
8a-L	.
16r	.
16a-	.
=820	=820
8gL	pp
16r	.
16d	.
8e-L	.
16r	.
16g	.
8a-L	.
16r	.
16a-	.
=821	=821
8gL	.
16r	.
16d	.
8e-L	.
16r	.
16G	.
8A-L	.
16r	.
16A-	.
=822	=822
4G	.
8.r	.
16g	pp
8f	.
16r	.
16a-	.
=823	=823
4g	.
4g	.
4r	.
=824	=824
4r	.
8.r	.
!LO:TX:t=sempre pp	!
16b-	.
8b-	.
16r	.
16a- 16b-	.
=825	=825
4g 4b-	.
4b-	.
4r	.
=826	=826
4r	.
4b-	.
4r	.
=827	=827
4r	.
4b-	.
4r	.
=828	=828
4r	.
4b-	.
4r	.
=829||	=829||
!LO:TX:a:B:t=Presto	!
4r	.
!LO:TX:t=cresc.	!
4b-	<
4b-	.
=830	=830
4b-	.
4b-	.
4b-	.
=831	=831
4b-	.
4b-	.
4b-	.
=832	=832
4b-	.
4b-	.
4b-	.
=833	=833
4e- 4b-	f
4e- 4b-	pp
4e- 4b-	.
=834	=834
4e- 4b-	.
4e- 4b-	.
4e- 4b-	.
=835	=835
4e- 4b-	.
4e- 4b-	.
4e- 4b-	.
=836	=836
4e- 4b-	.
4e- 4b-	.
4e- 4b-	.
=837	=837
4f 4b-	.
4f 4b-	.
4f 4b-	.
=838	=838
4f 4b-	.
4f 4b-	.
4f 4b-	.
=839	=839
4f 4b-	.
4f 4b-	.
4f 4b-	.
=840	=840
4f 4b-	.
4f 4b-	.
4f 4b-	.
=841||	=841||
!LO:TX:a:B:t=Tempo I	!
2.r	.
=842	=842
4r	.
8.r	.
16g	pp
8f	.
16r	.
16a-	.
=843	=843
4g	.
4g	.
4r	.
=844	=844
4r	.
8.r	.
!LO:TX:t=sempre pp	!
16b-	.
8b-	.
16r	.
16a- 16b-	.
=845	=845
4g 4b-	.
4b-	.
4r	.
=846	=846
4r	.
4b-	.
4r	.
=847	=847
4r	.
4b-	.
!LO:TX:t=cresc.	!
8b-L	<
16r	.
16b-	.
=848	=848
8b-L	.
16r	.
16b-	.
8ccL	.
16r	.
16a-	.
8e-L	.
16r	[
16g 16ee-	ff
=849	=849
4g 4ee-	.
8e-L	.
8r	.
4r	.
=850	=850
*M2/2	*
4G 4g	f
4g	.
[2a-	sf
=851	=851
(4a-	p
4f	.
4d	.
4e-	.
=852	=852
4B	.
4c	.
4A	.
4B-	.
=853	=853
4G	.
4A-	.
4f	.
[4B-)	.
=854	=854
[1B-	.
=855	=855
[1B-	.
=856	=856
(2B-	.
[2B-)	.
=857	=857
2.B-	.
(8B-	.
8A-	.
=858	=858
4G)	.
[2.B-)	.
=859	=859
(2B-	.
4c	.
4d	.
=860	=860
4B- 4e-	.
4g	.
4f	.
4e-)	.
=861	=861
(2e-	.
4d)	.
(4A-	.
=862	=862
4G	.
[2.B-)	.
=863	=863
[1B-	.
=864	=864
(2B-	.
[2B-)	.
=865	=865
2.B-	.
(8B-	.
8A-	.
=866	=866
4G)	.
[2.B-)	.
=867	=867
(2B-	.
4c	.
4d	.
=868	=868
2.e-	.
8B-	.
8A-)	.
=869	=869
(4A-	.
4G)	.
4G	.
4r	.
=870	=870
1r	.
=871	=871
2r	.
4r	.
4cc	.
=872	=872
(qqcc	f
qqdd	.
4cc	.
4e-)	.
(qqd	.
qqe-	.
4d	.
4c)	.
=873	=873
(qqe-	.
qqf	.
4e-	.
4d)	.
4d	.
4r	.
=874	=874
2r	.
4r	.
(4g	p
=875	=875
4a-	.
4b-)	.
4b-	.
4a-	.
=876	=876
4a-	f
4r	.
(qqg	.
qqa-	.
4g	.
4f)	.
=877	=877
(4e-	.
4d	.
4e-)	.
[4g	p
=878	=878
(4g	.
4f	.
4g	.
4b-	.
=879	=879
4g	.
4f	.
4e-)	.
(8g	.
8a-	.
=880	=880
4b-)	f
(8cc	.
8dd	.
4ee-)	.
(8ff	.
8gg)	.
=881	=881
(4gg	.
4aa-)	.
4ff	.
(4d 4f	p
=882	=882
4g	.
4f	.
4g	.
4b-	.
=883	=883
4c	.
4d	.
4e-)	.
(8G	.
8A-	.
=884	=884
4B-)	f
(8e-	.
8f	.
4g)	.
(8g	.
8a-	.
=885	=885
4b-)	.
(8cc	.
8dd	.
4ee-)	.
(8c	.
8d)	.
=886	=886
(2e-	pp
8dL	.
8f	.
8d	.
8B-)	.
=887	=887
(4g	.
4e-	.
8dL	.
8f	.
8d	.
8B-)	.
=888	=888
(4g	.
[4e-)	.
(8e-L	.
8g-	.
8f	.
8e-)	.
=889	=889
(8e-L	.
8d	.
8f	.
8d	.
8cL	.
8B-	.
8c	.
8d)	.
=890	=890
(4e-	.
[2.b-)	.
=891	=891
[1b-	.
=892	=892
(2b-	.
2cc)	.
=893	=893
(4dd	.
4ee-	.
4cc	.
4a)	.
=894	=894
(8B-L	.
8f	.
8d	.
8B-	.
!LO:TX:t=sempre pp	!
2e-)	.
=895	=895
(8B-L	.
8f	.
8d	.
8B-	.
2e-)	.
=896	=896
(8B-L	.
8f	.
8d	.
8B-	.
2e)	.
=897	=897
(4f	.
4g	.
4e-	.
4c)	.
=898	=898
(8dL	.
8dd	.
8f	.
8d	.
2cc)	.
=899	=899
(8dL	.
8dd	.
8f	.
8d	.
2cc)	.
=900	=900
(8dL	.
8dd	.
8b-	.
8f	.
!LO:TX:t=cresc.	!
2dd-)	<
=901	=901
2cc	.
[2c	.
=902	=902
(4c	.
4d	.
4g	.
4e-)	.
=903	=903
(4b-	.
4a	.
4g-	.
8f	.
8e-)	.
=904	=904
4d	f
4gg	.
4ff	.
4ee-	.
=905	=905
4dd	.
4cc	.
4b-	.
4b-	.
=906	=906
4b-	f
4b	.
4cc	f
(8dd	.
8ee)	.
=907	=907
4ff	f
4gg	.
4aa	f
(8gg	.
8aa)	.
=908	=908
4ff	.
4gg	.
4ff	.
4ee-	.
=909	=909
4dd	.
4cc	.
4b-	.
4b-	.
=910	=910
4b-	.
4b	.
4cc	f
4dd	.
=911	=911
4aa	f
4gg	.
4ff	f
4ee-	.
=912	=912
4dd	p
4cc	.
4b-	.
4f	.
=913	=913
4d	.
4f	.
4e-	.
4d	.
=914	=914
4G	.
4g	.
4g	f
4b-	.
=915	=915
4a	f
4e	.
4d	f
4B- 4e	.
=916	=916
1r	.
=917	=917
2r	.
4G 4g	.
4gg	.
=918	=918
1r	.
=919	=919
2r	.
4d	.
4dd	.
=920	=920
2r	.
4e-	.
4ee-	.
=921	=921
2r	.
4f	f
4ff	.
=922	=922
4dd#	.
4ee	.
2ee 2gg	.
=923	=923
4dd#	.
4ee	.
2ee 2gg	.
=924	=924
4dd#	.
4ee	.
2ee 2gg	.
=925	=925
(4ff	.
8ff	.
8ee-	.
4dd)	.
(8cc	.
8b-)	.
=926	=926
4dd#	ff
4ee	.
2ee 2gg	.
=927	=927
4dd#	.
4ee	.
2ee 2gg	.
=928	=928
4dd#	.
4ee	.
2ee 2gg	.
=929	=929
4b-	.
(4b-	.
4dd)	.
(8cc	.
8b-)	.
=930	=930
(8ddL	f
8cc	.
8b	.
8cc)	.
4cc	.
4cc	.
=931	=931
(8ccL	.
8b-	.
8a	.
8b-)	.
4b-	.
4r	.
=932	=932
1r	.
=933	=933
2r	.
4r	.
(8ee-	f
8dd)	.
=934	=934
(8ddL	.
8cc	.
8b	.
8cc)	.
4cc	.
4cc	.
=935	=935
(8ccL	.
8b-	.
8a	.
8b-)	.
4b-	.
4r	.
=936	=936
1r	.
=937	=937
2r	.
4r	.
4ccc	p
=938	=938
(8bb-L	.
8aa-	.
8gg	.
8aa-)	.
4gg	.
4aa-	.
=939	=939
(8ggL	.
8ff	.
8ee-	.
8ff)	.
4ee-	.
(8aa-	p
8gg)	.
=940	=940
(8ggL	.
8ff	.
8ee	.
8ff)	.
4ff	.
4ff	.
=941	=941
(8ffL	.
8ee-	.
8dd	.
8ee-)	.
4ee-	.
4ee-	.
=942	=942
(8ffL	pp
8ee-	.
8dd	.
8ee-)	.
4ee-	.
4ee-	.
=943	=943
(8ffL	.
8ee-	.
8dd	.
8ee-)	.
4ee-	.
4ee-	.
=944	=944
!LO:TX:t=cresc.	!
(8ffL	<
8ee-	.
8dd	.
8ee-)	.
4ee-	.
4ee-	.
=945	=945
(8ffL	.
8ee-	.
8dd	.
8ee-)	.
4ee-	.
4ee-	.
=946	=946
4G 4g	f
4g	.
[2a-	sf
=947	=947
(4a-	p
4f	.
4d	.
4e-	.
=948	=948
4B	.
4c	.
4A	.
4B-	.
=949	=949
4G	.
4A-	.
!LO:TX:t=sempre p	!
4f	.
4b-	.
=950	=950
4f	.
4g	.
4e-)	.
4r	.
=951	=951
2r	.
4r	.
4g	.
=952	=952
(4g	.
4a-	.
4c	.
4g)	.
=953	=953
2d-	.
[2c	.
=954	=954
2.c	.
[4ff	.
=955	=955
(4ff	.
4ee)	.
4ee	.
4ee	.
=956	=956
4ee	pp
4ee 4gg	.
4ee 4gg	.
4ee 4gg	.
=957	=957
4ee 4gg	.
4ee 4gg	.
4dd 4gg	.
4cc 4gg	.
=958	=958
4ff	.
4ee	.
4bb	.
4ccc	.
=959	=959
4bb	.
4gg	.
4gg	.
4gg	.
=960	=960
4g 4ee-	f
4g	.
4f	f
4e-	.
=961	=961
4d	f
4c	.
4B	f
4c	.
=962	=962
4c	.
4cc	.
4cc	.
4cc	.
=963	=963
(4cc	.
8dd	.
8ee-)	.
4ff	.
4ee-	.
=964	=964
4ee-	.
4dd	.
qqdd	f
4cc	.
4b	.
=965	=965
qqb	f
4a	.
4g	.
4f#	.
4g	ff
=966	=966
4g	.
4g	.
4g	.
4g	.
=967	=967
(4g	.
8a	.
8b	.
4cc)	.
4b	.
=968	=968
(4b	.
8cc	.
8dd)	.
4ee-	.
4dd	.
=969	=969
(4dd	.
8ee-	.
8ff)	.
4gg	.
4B	.
=970	=970
4cc	pp
4cc	.
4cc	.
4cc	.
=971	=971
(4cc	.
8dd	.
8ee-)	.
4ff	.
4ee-	.
=972	=972
(2b	.
2cc	.
=973	=973
2b	.
2g)	.
=974	=974
!LO:TX:t=cresc.	!
(8cL	<
8g	.
8e	.
8c	.
2a-)	.
=975	=975
(8cL	.
8g	.
8e	.
8c	.
2g) 2b-	.
=976	=976
4a-	f
4cc 4ff	.
4cc 4ee	f
4cc 4ee	.
=977	=977
4cc 4ee	p
4cc 4ee	.
4cc 4ee	.
4cc 4ee	.
=978	=978
4cc 4ee	.
4cc 4ee	.
4cc 4ee	.
4cc 4ee	.
=979	=979
4cc 4ee	.
4cc 4ee	.
4cc 4ee	.
4cc 4ee	.
=980	=980
4cc 4ff	.
4cc 4ff	.
4cc 4ee	.
4cc 4ee	.
=981	=981
4cc 4ee	p
4cc 4ee	.
4cc 4ee	.
4cc 4ee	.
=982	=982
4cc 4ee	.
4cc 4ee	.
4cc 4ee	.
4cc 4ee	.
=983	=983
4cc 4ee	.
4cc 4ee	.
4cc 4ee	.
4cc 4ee	.
=984	=984
!LO:TX:t=sempre p	!
(8ee-L	.
8ccc	.
8ff	.
8ee-	.
2dd)	.
=985	=985
(8dd-L	.
8bb-	.
8ee-	.
8dd-	.
2cc)	.
=986	=986
(8ccL	.
8aa-	.
8dd-	.
8cc	.
[2b-)	.
=987	=987
(4b-	.
!LO:TX:t=cresc.	!
[4cc)	<
(8ccL	.
8aa-	.
8ff	.
8cc)	.
=988	=988
[2b-	.
(8b-L	.
8gg	.
8ee-	.
8b-)	.
=989	=989
[2a-	.
(8a-L	.
8ff	.
8dd-	.
8a-)	.
=990	=990
!LO:TX:t=dim.	!
(2a-	>
8fL	.
8cc-	.
8a-	.
8f)	.
=991	=991
(2g	.
8e-L	.
8cc	.
8a-	.
8e-)	.
=992	=992
(8dL	]
8a-	.
8f	.
8d	.
8d-L	.
8g	.
8f-	.
8d-	.
=993	=993
8f-L	.
8b-	.
8g	.
8f-	.
8gL	.
8dd-	.
8b-	.
8g)	.
=994	=994
(8ccL	p
8aa-	.
8ee-	.
8cc	.
2ff)	.
=995	=995
(8ccL	.
8aa-	.
8ee-	.
8cc)	.
2ff	.
=996	=996
(8ccL	.
8aa-	.
8ee-	.
8cc	.
4ff)	.
[4f	.
=997	=997
(4f	.
2e-	.
8f	.
8g)	.
=998	=998
(4e-	.
4b-	.
4a-	.
4g)	.
=999	=999
(4a-	.
4b-	.
4cc	.
4dd-)	.
=1000	=1000
(4ee-	.
4cc	.
4b-	.
4a-)	.
=1001	=1001
(4e-	.
4dd	.
4ee-	.
4dd-)	.
=1002	=1002
(2cc	.
2g	.
=1003	=1003
2cc	.
2g	.
=1004	=1004
2cc	.
2f)	.
=1005	=1005
(4g	.
2e-	.
8f	.
8g	.
=1006	=1006
4a-	.
4b-	.
4cc	.
4dd-	.
=1007	=1007
4cc)	.
*^	*
[2.e-	(4B-	.
.	4A-	.
.	4G	.
=1008	=1008	=1008
4e-	4A-	.
*v	*v	*
4f	.
4f-	.
4e-	.
=1009	=1009
(4e-	.
4a-)	.
4a-	.
4r	.
=1010	=1010
1r	.
=1011	=1011
1r	.
=1012	=1012
2r	.
4r	.
(4B-	.
=1013	=1013
4A-	.
4G)	.
4G	.
4r	.
=1014	=1014
2r	.
4r	.
(4a-	.
=1015	=1015
4c	.
4B-	.
4A-)	.
4e	p
=1016	=1016
(4f	<
4e-)	.
(8e-L	.
8d	.
8c	.
8B-)	.
=1017	=1017
(4A-	.
4G	.
4c)	.
(8b-	.
8g	.
=1018	=1018
4a-	.
4g	.
4a-	.
4cc	.
=1019	=1019
4c	.
4B-	.
4A-	.
8G)	.
(8gg	.
=1020	=1020
4aa-)	.
8gg	.
8ff)	.
(8ffL	.
8ee-)	.
(8ee-	.
8dd)	.
=1021	=1021
(4ff	.
4ee-)	.
4ee-	.
(8g	.
8G	.
=1022	=1022
4e-	.
4d-	.
4c	.
4a-	.
=1023	=1023
4cc	.
4b-	.
4a-)	[
4ee	f
=1024	=1024
(4ff	.
4ee-)	.
(8ee-L	.
8dd-	.
8cc	.
8b-	.
=1025	=1025
4a-	.
8g	.
8d-	.
4B-)	.
(4g	p
=1026	=1026
4e-)	.
2e-	.
(4e	.
=1027	=1027
!LO:TX:t=cresc.	!
4f)	<
2f	.
[4g	.
=1028	=1028
4g	.
[2.g	.
=1029	=1029
4g	.
[2.a	.
=1030	=1030
!LO:TX:t=dim.	!
4a	>
[2.b	.
=1031	=1031
4b	.
[2.b	.
=1032	=1032
4b	.
2b	.
[4b- [4ff	.
=1033	=1033
4b- 4ff	pp
[2.b- [2.ff	.
=1034	=1034
4b- 4ff	.
[2.b- [2.ff	.
=1035	=1035
4b- 4ff	.
2.b- 2.ff	.
=1036	=1036
(4b- 4gg	.
4ee-	.
8ccL	.
8ff	.
8dd	.
[8b-)	.
=1037	=1037
(4b-	.
4ee-	.
8ccL	.
8ff	.
8dd	.
[8b-)	.
=1038	=1038
(4b-	.
[4ee-)	.
8ee-L	.
(8gg-	.
8ff	.
8ee-	.
=1039	=1039
4dd-	.
2cc)	.
4cc	.
=1040	=1040
!LO:TX:t=p dolce	!
(4cc	.
4b-	.
4g-	.
4f	.
=1041	=1041
4g	.
2b-)	.
(4dd	.
=1042	=1042
4ee-	.
4gg	.
4ff	.
4ee-)	.
=1043	=1043
(2ee-	.
4dd)	.
(4B- 4f	.
=1044	=1044
8B-L) 8g	.
(8b-	.
8g	.
8e-	.
2a-)	.
=1045	=1045
(8gL	.
8a-	.
8g	.
8e-	.
2a-)	.
=1046	=1046
(8gL	.
8b-	.
8g	.
8e-	.
2a)	.
=1047	=1047
(4b-	.
4ccc	.
4aa-	.
4ff)	.
=1048	=1048
!LO:TX:t=cresc.	!
(4ee-	<
4dd	.
4cc	.
4b-	.
=1049	=1049
4cc	.
4dd	.
4ee-	.
4ff	.
=1050	=1050
4gg	p
4bb-	.
4aa-	.
4ff)	.
=1051	=1051
(4ff	.
4ee-)	.
4ee-	.
8gg	.
8aa-	.
=1052	=1052
8bb-L	.
8aa-	.
8aa-	.
8gg	.
8ggL	.
8ff	.
8ee-	.
8dd	.
=1053	=1053
8ccL	.
8b-	.
8cc	.
8dd	.
8ee-L	.
8ee-	.
8ff	.
8gg	.
=1054	=1054
8aa-L	.
8gg	.
8gg	.
8ff	.
8ffL	.
8ee-	.
8ee-	.
8ff	.
=1055	=1055
8ffL	.
8gg	.
8ff	.
8ee-	.
8ee-L	.
8dd	.
8gg	p
8ff	.
=1056	=1056
8bb-L	.
8aa-	.
8aa-	.
8gg	.
8ggL	.
8ff	.
8ee-	.
8dd	.
=1057	=1057
8ccL	.
8b-	.
8cc	.
8dd	.
8ddL	.
8ee-	.
8b-	.
8b	.
=1058	=1058
8bL	.
8cc	.
8cc	.
8dd	.
8ddL	.
8ee-	.
8ee-	.
8ff	.
=1059	=1059
8ffL	.
8gg	.
8ff	.
8dd	.
4ee-	.
(4b-	p
=1060	=1060
4ee-)	.
4dd	.
4ee-	.
4gg	.
=1061	=1061
4b-	.
4a-	.
4g)	.
4ee-	.
=1062	=1062
(qqee-	f
qqff	.
4ee-	.
4cc)	.
(qqb-	.
qqcc	.
4b-	.
4a)	.
=1063	=1063
(qqcc	.
qqdd	.
4cc	.
4b-)	.
4b-	.
(4b-	p
=1064	=1064
4ee-	.
4dd	.
4ee-	.
4gg	.
=1065	=1065
4b-	.
4a-	.
4g)	.
4ee-	.
=1066	=1066
(4ee-	f
4cc)	.
(qqb-	.
qqcc	.
4b-	.
4a-)	.
=1067	=1067
(4g	.
8a-	.
8f)	.
8e-L	.
(8b-	.
8cc	.
8a-)	.
=1068	=1068
4g	.
4cc	.
4b-	.
4a-	.
=1069	=1069
4g	.
4f	.
4e-	.
4e-	.
=1070	=1070
4e-	f
(8b-	.
8cc	.
4dd)	f
4ee-	.
=1071	=1071
4dd	f
4cc	.
4dd	f
4r	.
=1072	=1072
1r	.
=1073	=1073
4e-	.
4ee-	.
4ee-	.
4ee-	.
=1074	=1074
4ee-	.
4ee-	.
4ff	f
4gg	.
=1075	=1075
4b-	.
4cc	.
4b-	.
4a-	.
=1076	=1076
qqa-	p
4g	.
4f	.
qqf	.
4e-	.
4B-	.
=1077	=1077
4G	.
4r	.
2r	.
=1078	=1078
4aa-	f
4gg	.
4ff	f
4ee-	.
=1079	=1079
4dd	f
4cc	.
4b-	.
4e- 4a	.
=1080	=1080
1r	.
=1081	=1081
2r	.
4c	.
4cc	.
=1082	=1082
1r	p
=1083	=1083
2r	.
4g	.
4gg	.
=1084	=1084
2r	.
4a-	f
4aa-	.
=1085	=1085
2r	.
4b-	.
4bb-	.
=1086	=1086
4g#	.
4a	.
2a 2cc	.
=1087	=1087
4g#	.
4a	.
2a 2cc	.
=1088	=1088
4g#	.
4a	.
2a 2cc	.
=1089	=1089
(4b- 4bb-	.
8bb-	.
8aa-	.
4gg)	.
(8ff	.
8ee-)	.
=1090	=1090
4gg#	ff
4a 4aa	.
2a 2ccc	.
=1091	=1091
4gg#	.
4a 4aa	.
2a 2ccc	.
=1092	=1092
4gg#	.
4a 4aa	.
2a 2ccc	.
=1093	=1093
(8b-L	.
8bb-)	.
(8bb-L	.
8aa-)	.
4gg	.
(8ff	.
8ee-)	.
=1094	=1094
(8ggL	.
8ff	.
8ee	.
8ff)	.
4ff	.
4ff	.
=1095	=1095
(8ffL	.
8ee-	.
8dd	.
8ee-)	.
4ee-	.
4r	.
=1096	=1096
1r	.
=1097	=1097
2r	.
4r	.
(8aa-	f
8gg)	.
=1098	=1098
(8ggL	.
8ff	.
8ee	.
8ff)	.
4ff	.
4ff	.
=1099	=1099
(8ffL	.
8ee-	.
8dd	.
8ee-)	.
!LO:TX:t=dim.	!
4ee-	>
4gg	.
=1100	=1100
(8ggL	.
8ff	.
8ee	.
8ff)	.
4ff	.
4ff	.
=1101	=1101
(8ggL	.
8ff	.
8ee	.
8ff)	.
4ff	.
4ff	.
=1102	=1102
(8ffL	.
8ee-	.
8dd	.
8ee-)	.
4ee-	.
4ee-	.
=1103	=1103
!LO:TX:B:t=Rit.	!
(4ee-	p
4ee-	.
4ee-	.
4ee-)	.
=1104	=1104
(4ee	pp
4ee	.
4ee	.
4ee)	.
=1105||	=1105||
*k[]	*
*C:	*
*M6/8	*
[2.ee	.
=1106	=1106
[2.ee	.
=1107	=1107
4.ee	.
(24eeLL	pp
24dd	.
24cc	.
24bLL	.
24a	.
24g	.
24fLL	.
24e	.
24d)	.
=1108	=1108
(24eLL	.
24c	.
24d	.
24eLL	.
24f	.
24g	.
24aLL	.
24b	.
24cc	.
24ddLL	.
24ee	.
24cc	.
24bLL	.
24a	.
24g	.
24fLL	.
24e	.
24d)	.
=1109	=1109
(24eLL	.
24c	.
24d	.
24eLL	.
24f	.
24g	.
24aLL	.
24b	.
24cc	.
24ccLL	.
24ee-	.
24cc	.
24ee-LL	.
24cc	.
24ee-	.
24ccLL	.
24ee-)	.
24cc	.
=1110	=1110
(24ee-LL	.
24cc	.
24ee-	.
24ccLL	.
24ee-	.
24dd-	.
24ccLL	.
24dd-	.
24b-	.
24a-LL	.
24b-	.
24g	.
24fLL	.
24g	.
24e-	.
24d-LL	.
24c	.
24B-)	.
=1111	=1111
(8a-L	.
8ee-)	.
16ccLL	.
16a-	.
(16e-LL	.
[16dd-)	.
4dd-	.
=1112	=1112
(8a-L	.
8ee-)	.
16ccLL	.
16a-	.
(16dLL	.
[16dd)	.
4dd	.
=1113	=1113
(16d#LL	.
16dd#)	.
(16eLL	.
16ee)	.
(24eeLL	.
24dd#	.
24cc#	.
24bLL	.
24a	.
24g#	.
24f#LL	.
24e	.
24d#	.
24c#LL	.
24B	.
24G	.
=1114	=1114
24G#LL)	.
!LO:TX:t=sempre pp	!
(24gg#	.
24ff#	.
24eeLL	.
24dd#	.
24cc#	.
24bLL	.
24a	.
24g#	.
24f#LL	.
24g#	.
24a	.
24bLL	.
24cc#	.
24dd#	.
24eeLL	.
24ff#	.
24dd#)	.
=1115	=1115
(24bbLL	.
24gg#	.
24ff#	.
24eeLL	.
24dd#	.
24cc#	.
24bLL	.
24a	.
24g#	.
24aLL	.
24aa	.
24a	.
24aaLL	.
24a	.
24aa	.
24aLL	.
24aa	.
24a)	.
=1116	=1116
8aaL	.
8bb-	.
8r	.
8bbL	.
8ccc	.
8r	.
=1117	=1117
8ffL	.
8ff	.
8r	.
8ffL	.
8b- 8gg	.
8r	.
=1118||	=1118||
*k[b-e-a-]	*
*E-:	*
(24B-LL	.
24b-	.
24B-	.
24b-LL	.
24B-	.
24b-	.
24B-LL	.
24b-	.
24B-	.
24b-LL	.
24B-	.
24b-	.
24B-LL	.
24b-	.
24B-	.
24b-LL	.
24B-	.
24b-)	.
=1119	=1119
(24B-LL	.
24b-	.
24B-	.
24b-LL	.
24B-	.
24b-	.
24B-LL	.
24b-	.
24B-	.
24ccLL	.
24c	.
24cc	.
24cLL	.
24cc	.
24c	.
24ccLL	.
24c	.
24cc)	.
=1120	=1120
8GL	.
8r	.
(16g	.
16gg)	.
8r	.
8r	.
(16a-	.
16aa-)	.
=1121	=1121
8r	.
8r	.
(16f#	.
16ff#)	.
8r	.
8r	.
(16g	.
16gg)	.
=1122	=1122
(16gLL	.
16gg)	.
(16gLL	.
16gg)	.
8r	.
(16gLL	.
16gg)	.
(16a-LL	.
16aa-)	.
8r	.
=1123	=1123
(16fLL	.
16ff)	.
(16f#LL	.
16ff#)	.
8r	.
(16f#LL	.
16ff#)	.
(16gLL	.
16gg)	.
8r	.
=1124	=1124
(8e-L	.
8ee-)	.
16bLL	.
16g	.
8r	.
8ccc	.
16ee-LL	.
16cc	.
=1125	=1125
(8e-L	.
8ee-)	.
16ccLL	.
16a	.
(8e-L	.
8ee-)	.
16b-LL	.
16B- 16g	.
=1126	=1126
(24b-LL	ff
24g	.
24a-	.
24b-LL	.
24cc	.
24dd	.
24ee-LL	.
24ff	.
24gg	.
24ffLL	.
24ee-	.
24dd	.
24ccLL	.
24b-	.
24a-	.
24gLL	.
24a-	.
24f)	.
=1127	=1127
(24gLL	.
24e-	.
24f	.
24gLL	.
24a-	.
24b-	.
24ccLL	.
24dd	.
24ee-)	.
24g-LL	sf
24g-	.
24g-	.
24g-LL	.
24g-	.
24g-	.
24g-LL	.
24g-	.
24g-	.
=1128	=1128
24fLL	sf
24f	.
24f	.
24fLL	.
24f	.
24f	.
24fLL	.
24f	.
24f	.
24a-LL	sf
24a-	.
24a-	.
24a-LL	.
24a-	.
24a-	.
24a-LL	.
24a-	.
24a-	.
=1129	=1129
24A-LL 24a-	.
24A- 24a-	.
24A- 24a-	.
24A-LL 24a-	.
24A- 24a-	.
24A- 24a-	.
24A-LL 24a-	.
24A- 24a-	.
24A- 24a-	.
24A-LL 24a-	.
24A- 24a-	.
24A- 24a-	.
24A-LL 24a-	.
24A- 24a-	.
24A- 24a-	.
24A-LL 24a-	.
24A- 24a-	.
24A- 24a-	.
=1130	=1130
(24GLL 24g	p
24G	.
24A-	.
24B-LL	.
24c	.
24d	.
24e-LL	.
24f	.
24g	.
!LO:TX:t=cresc.	!
24a-LL	<
24b-	.
24cc	.
24ddLL	.
24ee-	.
24ff	.
24ggLL	.
24aa-	.
24ff	.
=1131	=1131
24bb-LL)	.
(24g	.
24a-	.
24b-LL	.
24cc	.
24dd	.
24ee-LL	.
24ff	.
24gg	.
24ggLL	.
24ee-	.
24dd	.
24ccLL	.
24b-	.
24a	.
24gLL	.
24f	.
24e-)	.
=1132	=1132
24A-LL 24d	.
24A- 24d	.
24A- 24d	.
24A-LL 24d	.
24A- 24d	.
24A- 24d	.
24A-LL 24d	.
24A- 24d	.
24A- 24d	.
24A-LL 24d	.
24A- 24d	.
24A- 24d	.
24A-LL 24d	.
24A- 24d	.
24A- 24d	.
24A-LL 24d	.
24A- 24d	.
24A- 24d	.
=1133	=1133
24A-LL 24d	.
24A- 24d	.
24A- 24d	.
24A-LL 24d	.
24A- 24d	.
24A- 24d	.
24A-LL 24d	.
24A- 24d	.
24A- 24d	[
24A-LL 24d	f
24A- 24d	.
24A- 24d	.
24A-LL 24d	.
24A- 24d	.
24A- 24d	.
24A-LL 24d	.
24A- 24d	.
24A- 24d	.
=1134	=1134
(8bb-L	p
8ccc)	.
16aa-LL	.
16ff	.
(8ee-L	.
8ff)	.
16ddLL	.
16b-	.
=1135	=1135
8ee-L	.
8ee-	.
8r	.
8ggL	.
8aa-	.
8r	.
=1136	=1136
(8b-L	.
8cc)	.
16a-LL	.
16f	.
!LO:TX:t=cresc.	!
(8gL	<
8a-)	.
16fLL	.
16d	.
=1137	=1137
8ee-L	.
8ee-	.
16ee-LL	.
16dd	.
(8ggL	.
8aa-)	.
16ffLL	.
16dd	.
=1138	=1138
24B-LL	ff
24B-	.
24B-	.
24B-LL	.
24B-	.
24B-	.
24cLL	.
24c	.
24c	.
24cLL	.
24c	.
24c	.
24dLL	.
24d	.
24d	.
24dLL	.
24d	.
24d	.
=1139	=1139
!LO:TX:t=non legato	!
24ee-LL	.
24dd	.
24cc	.
24b-LL	.
24a-	.
24g	.
24ccLL	.
24b-	.
24a-	.
24gLL	.
24f	.
24e-	.
24dLL	.
24c	.
24B-	.
24cLL	.
24d	.
24B-	.
=1140	=1140
8e-L	.
8G 8e- 8ee-	.
8r	.
8r	.
8d 8b- 8ff	.
8r	.
=1141	=1141
8r	.
8e- 8b- 8gg	.
8r	.
8r	.
8d 8b- 8ff	.
8r	.
=1142	=1142
(24ee-LL	pp
24ff	.
24ee-	.
24ddLL	.
24ee-	.
24dd	.
24ee-LL	.
24ff	.
24ee-)	.
(24ee-LL	.
24ff	.
24ee-	.
24ddLL	.
24ee-	.
24dd	.
8ee-J)	.
=1143	=1143
!LO:TX:t=sempre pp	!
24ee-LL	.
24g 24b-	.
24g 24b-	.
24gLL 24b-	.
24g 24b-	.
24g 24b-	.
24gLL 24b-	.
24g 24b-	.
24g 24b-	.
(24ffLL	.
24ee-	.
24dd	.
24ccLL	.
24b-	.
24a-	.
24gLL	.
24a-	.
24f)	.
=1144	=1144
(24ee-LL	.
24ff	.
24ee-	.
24ddLL	.
24ee-	.
24dd	.
24ee-LL	.
24ff	.
24ee-)	.
(24ee-LL	.
24ff	.
24ee-	.
24ddLL	.
24ee-	.
24dd	.
8ee-J)	.
=1145	=1145
24ee-LL	pp
24b-	.
24b-	.
24b-LL	.
24b-	.
24b-	.
24b-LL	.
24b-	.
24b-	.
24b-LL	.
24b-	.
24b-	.
24b-LL	.
24b-	.
24b-	.
24b-LL	.
24b-	.
24b-	.
=1146	=1146
24b-LL	.
24b-	.
24b-	.
24b-LL	.
24b-	.
24b-	.
24b-LL	.
24b-	.
24b-	.
!LO:TX:t=cresc.	!
24b-LL	<
24b-	.
24b-	.
24b-LL	.
24b-	.
24b-	.
24b-LL	.
24b-	.
24b-	.
=1147	=1147
4b-	f
8r	.
4b- 4ff	ff
8r	.
=1148	=1148
4b- 4gg	.
8r	.
4r	.
8r	.
==	==
*-	*-
